;FLAVOR:Marlin
;TIME:1899
;Filament used: 0.837987m
;Layer height: 0.1
;Generated with Cura_SteamEngine 3.6.0
M140 S60
M105
M190 S60
M104 S200
M105
M109 S200
M82 ;absolute extrusion mode
G21 ;metric values
G90 ;absolute positioning
M82 ;set extruder to absolute mode
M107 ;start with the fan off
G28 X0 Y0 ;move X/Y to min endstops
G28 Z0 ;move Z to min endstops
G1 Z15.0 F100 ;move the platform down 15mm
G92 E0 ;zero the extruded length
G1 F200 E3 ;extrude 3mm of feed stock
G92 E0 ;zero the extruded length again
G1 F100
M117 Printing...
G5
G92 E0
G1 F2400 E-6
;LAYER_COUNT:20
;LAYER:0
M106 S255
M204 S3000
M205 X10 Y10
G0 F3000 X112.478 Y31.146 Z0.2
M204 S1800
M205 X8 Y8
;TYPE:SKIRT
G1 F2400 E0
G1 X112.675 Y30.458 E0.03332
G1 X112.952 Y29.788 E0.06708
G1 X113.257 Y29.155 E0.0998
G1 X113.603 Y28.529 E0.13311
G1 X113.888 Y28.113 E0.15659
G1 X114.309 Y27.547 E0.18943
G1 X114.767 Y26.998 E0.22273
G1 X115.449 Y26.367 E0.26599
G1 X116.16 Y25.799 E0.30836
G1 X116.743 Y25.384 E0.34169
G1 X117.369 Y25.037 E0.37501
G1 X118.103 Y24.737 E0.41194
G1 X118.865 Y24.479 E0.4494
G1 X119.554 Y24.288 E0.48269
G1 X120.26 Y24.175 E0.51598
G1 X121.047 Y24.142 E0.55266
G1 X121.735 Y24.156 E0.5847
G1 X122.448 Y24.211 E0.618
G1 X123.151 Y24.345 E0.65133
G1 X123.852 Y24.562 E0.6855
G1 X124.524 Y24.814 E0.71892
G1 X125.179 Y25.103 E0.75225
G1 X125.8 Y25.464 E0.7857
G1 X126.076 Y25.646 E0.80109
G1 X126.65 Y26.073 E0.83441
G1 X127.285 Y26.68 E0.87531
G1 X128.07 Y27.542 E0.9296
G1 X128.521 Y28.097 E0.9629
G1 X128.973 Y28.817 E1.00248
G1 X129.281 Y29.389 E1.03273
G1 X129.584 Y30.036 E1.066
G1 X129.814 Y30.714 E1.09934
G1 X129.966 Y31.413 E1.13265
G1 X130.046 Y32.423 E1.17982
G1 X130.046 Y158.669 E7.05837
G1 X130.006 Y159.383 E7.09167
G1 X129.887 Y160.088 E7.12496
G1 X129.724 Y160.673 E7.15324
G1 X129.604 Y161.037 E7.17108
G1 X129.561 Y161.164 E7.17733
G1 X128.91 Y163.006 E7.2683
G1 X127.35 Y168.113 E7.51695
G1 X126.073 Y173.333 E7.76718
G1 X125.321 Y177.153 E7.94847
G1 X125.144 Y177.846 E7.98177
G1 X124.891 Y178.515 E8.01508
G1 X124.564 Y179.152 E8.04842
G1 X124.169 Y179.748 E8.08171
G1 X123.71 Y180.296 E8.115
G1 X123.409 Y180.596 E8.13479
G1 X120.442 Y183.365 E8.32376
G1 X119.854 Y183.852 E8.35931
G1 X119.422 Y184.168 E8.38424
G1 X118.822 Y184.557 E8.41753
G1 X118.071 Y184.924 E8.45645
G1 X117.21 Y185.277 E8.49979
G1 X116.534 Y185.511 E8.5331
G1 X115.658 Y185.695 E8.57478
G1 X114.652 Y185.834 E8.62206
G1 X113.939 Y185.892 E8.65537
G1 X113.299 Y185.876 E8.68518
G1 X111.975 Y185.777 E8.74701
G1 X111.266 Y185.684 E8.7803
G1 X110.293 Y185.42 E8.82725
G1 X108.736 Y184.862 E8.90427
G1 X108.077 Y184.583 E8.93759
G1 X107.683 Y184.373 E8.95838
G1 X107.197 Y184.091 E8.98454
G1 X106.664 Y183.745 E9.01413
G1 X100.737 Y179.467 E9.3545
G1 X93.609 Y175.051 E9.74494
G1 X88.977 Y172.491 E9.99138
G1 X83.724 Y169.976 E10.26257
G1 X83.097 Y169.632 E10.29587
G1 X82.513 Y169.22 E10.32915
G1 X81.978 Y168.745 E10.36246
G1 X81.499 Y168.213 E10.39579
G1 X81.083 Y167.632 E10.42907
G1 X80.615 Y166.748 E10.47564
G1 X80.482 Y166.441 E10.49122
G1 X80.235 Y165.77 E10.52452
G1 X80.064 Y165.075 E10.55784
G1 X79.972 Y164.366 E10.59114
G1 X79.96 Y163.651 E10.62443
G1 X80.027 Y162.939 E10.65773
G1 X80.259 Y161.948 E10.70513
G1 X80.368 Y161.607 E10.7218
G1 X80.623 Y160.939 E10.75509
G1 X81.137 Y160.009 E10.80457
G1 X81.904 Y158.857 E10.86901
G1 X82.333 Y158.285 E10.90231
G1 X82.732 Y157.853 E10.92969
G1 X86.021 Y154.601 E11.14506
G1 X89.597 Y150.684 E11.39203
G1 X92.948 Y146.565 E11.63928
G1 X96.075 Y142.246 E11.88757
G1 X97.488 Y140.107 E12.00694
G1 X100.241 Y135.53 E12.25565
G1 X102.705 Y130.857 E12.50164
G1 X104.906 Y126.038 E12.74833
G1 X106.832 Y121.104 E12.99496
G1 X108.471 Y116.081 E13.24099
G1 X109.847 Y110.888 E13.49114
G1 X110.392 Y108.401 E13.60969
G1 X111.312 Y103.164 E13.85728
G1 X111.934 Y97.894 E14.10438
G1 X112.258 Y92.576 E14.35247
G1 X112.308 Y89.523 E14.49465
G1 X112.318 Y32.565 E17.14685
G1 X112.358 Y31.851 E17.18015
G1 X112.478 Y31.146 E17.21345
M204 S3000
M205 X10 Y10
G0 F3000 X113.038 Y31.21
M204 S1800
M205 X8 Y8
G1 F2400 X113.235 Y30.556 E17.24525
G1 X113.457 Y30.031 E17.2718
G1 X113.762 Y29.398 E17.30451
G1 X114.094 Y28.801 E17.33632
G1 X114.337 Y28.448 E17.35628
G1 X114.758 Y27.882 E17.38912
G1 X115.197 Y27.358 E17.42095
G1 X115.799 Y26.804 E17.45905
G1 X116.51 Y26.236 E17.50142
G1 X117.068 Y25.842 E17.53323
G1 X117.668 Y25.515 E17.56505
G1 X118.282 Y25.267 E17.59588
G1 X119.044 Y25.009 E17.63334
G1 X119.703 Y24.829 E17.66515
G1 X120.378 Y24.726 E17.69695
G1 X121.036 Y24.702 E17.72761
G1 X121.724 Y24.716 E17.75965
G1 X122.405 Y24.77 E17.79146
G1 X123.075 Y24.903 E17.82327
G1 X123.656 Y25.087 E17.85165
G1 X124.328 Y25.339 E17.88506
G1 X124.952 Y25.616 E17.91686
G1 X125.492 Y25.932 E17.94599
G1 X125.768 Y26.114 E17.96138
G1 X126.315 Y26.522 E17.99316
G1 X126.871 Y27.057 E18.02909
G1 X127.656 Y27.919 E18.08338
G1 X128.086 Y28.45 E18.11519
G1 X128.48 Y29.082 E18.14987
G1 X128.788 Y29.654 E18.18012
G1 X129.076 Y30.274 E18.21195
G1 X129.29 Y30.923 E18.24377
G1 X129.427 Y31.592 E18.27557
G1 X129.486 Y32.423 E18.31436
G1 X129.486 Y158.669 E24.19291
G1 X129.446 Y159.351 E24.22472
G1 X129.327 Y160.024 E24.25654
G1 X129.192 Y160.497 E24.27945
G1 X129.072 Y160.861 E24.29729
G1 X129.033 Y160.977 E24.30299
G1 X128.377 Y162.834 E24.3947
G1 X126.811 Y167.961 E24.64432
G1 X125.529 Y173.201 E24.89551
G1 X124.772 Y177.045 E25.07794
G1 X124.601 Y177.707 E25.10978
G1 X124.354 Y178.344 E25.14159
G1 X124.034 Y178.947 E25.17338
G1 X123.646 Y179.51 E25.20522
G1 X123.027 Y180.187 E25.24793
G1 X120.06 Y182.956 E25.43691
G1 X119.523 Y183.4 E25.46935
G1 X119.091 Y183.716 E25.49428
G1 X118.517 Y184.086 E25.52608
G1 X117.858 Y184.405 E25.56017
G1 X116.997 Y184.758 E25.6035
G1 X116.351 Y184.98 E25.63531
G1 X115.581 Y185.14 E25.67193
G1 X114.575 Y185.279 E25.71922
G1 X113.894 Y185.333 E25.75103
G1 X113.341 Y185.318 E25.77678
G1 X112.017 Y185.219 E25.83861
G1 X111.339 Y185.128 E25.87046
G1 X110.482 Y184.893 E25.91184
G1 X108.925 Y184.335 E25.98886
G1 X108.296 Y184.067 E26.02069
G1 X107.964 Y183.888 E26.03826
G1 X107.478 Y183.606 E26.06442
G1 X106.991 Y183.291 E26.09143
G1 X101.033 Y178.991 E26.43356
G1 X93.908 Y174.577 E26.82384
G1 X89.233 Y171.993 E27.07257
G1 X83.966 Y169.471 E27.34449
G1 X83.368 Y169.141 E27.37629
G1 X82.813 Y168.743 E27.40809
G1 X82.308 Y168.282 E27.43993
G1 X81.86 Y167.766 E27.47175
G1 X81.476 Y167.201 E27.50356
G1 X81.129 Y166.526 E27.5389
G1 X80.996 Y166.219 E27.55448
G1 X80.762 Y165.577 E27.5863
G1 X80.604 Y164.912 E27.61812
G1 X80.525 Y164.233 E27.64996
G1 X80.525 Y163.55 E27.68176
G1 X80.606 Y162.872 E27.71355
G1 X80.792 Y162.119 E27.74967
G1 X80.901 Y161.778 E27.76634
G1 X81.147 Y161.14 E27.79818
G1 X81.603 Y160.319 E27.84191
G1 X82.37 Y159.167 E27.90635
G1 X82.781 Y158.622 E27.93814
G1 X83.125 Y158.251 E27.9617
G1 X86.423 Y154.991 E28.17763
G1 X90.031 Y151.038 E28.42684
G1 X93.39 Y146.909 E28.67469
G1 X96.537 Y142.562 E28.92458
G1 X97.96 Y140.41 E29.04471
G1 X100.727 Y135.808 E29.29475
G1 X103.213 Y131.093 E29.54295
G1 X105.42 Y126.259 E29.79039
G1 X107.357 Y121.299 E30.03834
G1 X109.013 Y116.226 E30.28682
G1 X110.389 Y111.032 E30.53702
G1 X110.939 Y108.522 E30.65667
G1 X111.867 Y103.24 E30.90639
G1 X112.493 Y97.94 E31.15489
G1 X112.818 Y92.597 E31.40415
G1 X112.868 Y89.532 E31.54689
G1 X112.878 Y32.565 E34.19951
G1 X112.918 Y31.883 E34.23132
G1 X113.038 Y31.21 E34.26315
M204 S3000
M205 X10 Y10
G0 F3000 X113.597 Y31.278
M204 S1800
M205 X8 Y8
G1 F2400 X113.794 Y30.659 E34.2934
G1 X113.961 Y30.274 E34.31294
G1 X114.266 Y29.641 E34.34566
G1 X114.584 Y29.074 E34.37593
G1 X114.786 Y28.782 E34.39246
G1 X115.207 Y28.216 E34.42531
G1 X115.626 Y27.719 E34.45558
G1 X116.148 Y27.242 E34.4885
G1 X116.859 Y26.674 E34.53088
G1 X117.391 Y26.3 E34.56116
G1 X117.964 Y25.995 E34.59139
G1 X118.462 Y25.798 E34.61632
G1 X119.224 Y25.54 E34.65378
G1 X119.851 Y25.37 E34.68403
G1 X120.494 Y25.278 E34.71428
G1 X121.024 Y25.262 E34.73897
G1 X121.712 Y25.276 E34.77101
G1 X122.36 Y25.329 E34.80129
G1 X122.996 Y25.461 E34.83153
G1 X123.459 Y25.611 E34.85419
G1 X124.131 Y25.863 E34.88761
G1 X124.724 Y26.128 E34.91786
G1 X125.184 Y26.399 E34.94272
G1 X125.46 Y26.581 E34.95811
G1 X125.979 Y26.971 E34.98834
G1 X126.457 Y27.434 E35.01933
G1 X127.242 Y28.296 E35.07362
G1 X127.649 Y28.802 E35.10385
G1 X127.987 Y29.348 E35.13376
G1 X128.295 Y29.92 E35.16401
G1 X128.567 Y30.51 E35.19426
G1 X128.765 Y31.128 E35.22448
G1 X128.885 Y31.767 E35.25475
G1 X128.926 Y32.423 E35.28536
G1 X128.926 Y158.669 E41.1639
G1 X128.886 Y159.317 E41.19413
G1 X128.767 Y159.956 E41.2244
G1 X128.661 Y160.322 E41.24214
G1 X128.541 Y160.686 E41.25999
G1 X128.505 Y160.791 E41.26515
G1 X127.847 Y162.653 E41.35711
G1 X126.269 Y167.82 E41.60868
G1 X124.984 Y173.07 E41.86036
G1 X124.223 Y176.937 E42.04387
G1 X124.058 Y177.565 E42.07411
G1 X123.818 Y178.169 E42.10437
G1 X123.505 Y178.738 E42.13461
G1 X123.125 Y179.265 E42.16486
G1 X122.645 Y179.777 E42.19754
G1 X119.678 Y182.546 E42.38652
G1 X119.192 Y182.948 E42.41589
G1 X118.76 Y183.264 E42.44081
G1 X118.213 Y183.614 E42.47105
G1 X117.646 Y183.887 E42.50035
G1 X116.785 Y184.24 E42.54368
G1 X116.17 Y184.449 E42.57393
G1 X115.505 Y184.585 E42.60553
G1 X114.499 Y184.724 E42.65282
G1 X113.851 Y184.773 E42.68308
G1 X113.382 Y184.759 E42.70493
G1 X112.058 Y184.66 E42.76675
G1 X111.415 Y184.572 E42.79697
G1 X110.671 Y184.365 E42.83293
G1 X109.114 Y183.807 E42.90995
G1 X108.245 Y183.404 E42.95455
G1 X107.759 Y183.122 E42.98072
G1 X107.319 Y182.836 E43.00515
G1 X101.355 Y178.532 E43.34763
G1 X94.192 Y174.094 E43.73999
G1 X89.489 Y171.494 E43.99022
G1 X84.208 Y168.966 E44.26285
G1 X83.64 Y168.65 E44.29312
G1 X83.116 Y168.267 E44.32334
G1 X82.642 Y167.822 E44.35361
G1 X82.227 Y167.322 E44.38387
G1 X81.877 Y166.776 E44.41407
G1 X81.643 Y166.303 E44.43864
G1 X81.51 Y165.996 E44.45422
G1 X81.289 Y165.385 E44.48448
G1 X81.145 Y164.752 E44.5147
G1 X81.079 Y164.105 E44.54499
G1 X81.093 Y163.456 E44.57521
G1 X81.187 Y162.813 E44.60547
G1 X81.326 Y162.289 E44.63072
G1 X81.435 Y161.948 E44.64739
G1 X81.67 Y161.343 E44.67761
G1 X82.069 Y160.63 E44.71565
G1 X82.836 Y159.478 E44.7801
G1 X83.229 Y158.96 E44.81037
G1 X83.519 Y158.649 E44.83018
G1 X86.835 Y155.371 E45.04729
G1 X90.451 Y151.409 E45.29706
G1 X93.833 Y147.252 E45.5466
G1 X96.996 Y142.883 E45.79776
G1 X98.437 Y140.702 E45.91948
G1 X101.209 Y136.093 E46.16992
G1 X103.717 Y131.337 E46.42028
G1 X105.941 Y126.467 E46.66958
G1 X107.886 Y121.484 E46.91865
G1 X109.546 Y116.399 E47.16773
G1 X110.934 Y111.16 E47.4201
G1 X111.491 Y108.62 E47.54118
G1 X112.42 Y103.331 E47.79123
G1 X113.051 Y97.987 E48.0418
G1 X113.378 Y92.618 E48.29226
G1 X113.428 Y89.541 E48.43556
G1 X113.438 Y32.565 E51.0886
G1 X113.478 Y31.917 E51.11883
G1 X113.597 Y31.278 E51.1491
M204 S3000
M205 X10 Y10
G1 F2400 E45.1491
;MESH:Fantabulous_Allis.stl
G0 F3000 X118.164 Y32.131
G0 X119.567 Y32.725
G0 X120.394 Y157.393
M204 S1800
M205 X8 Y8
;TYPE:WALL-INNER
G1 F2400 E51.1491
G1 F1500 X120.393 Y157.394 E51.14916
G1 X120.108 Y157.399 E51.16244
G1 X120.108 Y157.114 E51.17098
G1 X120.108 Y157.113 E51.17103
G1 X120.108 Y32.853 E56.95709
G1 X120.17 Y32.729 E56.96355
G1 X120.291 Y32.534 E56.97424
G1 X120.483 Y32.294 E56.98855
G1 X120.644 Y32.141 E56.99889
G1 X120.769 Y32.051 E57.00606
G1 X120.885 Y31.987 E57.01223
G1 X120.986 Y31.946 E57.01731
G1 X121.075 Y31.922 E57.0216
G1 X121.179 Y31.909 E57.02648
G1 X121.305 Y31.917 E57.03236
G1 X121.475 Y31.963 E57.04056
G1 X121.577 Y32.011 E57.04581
G1 X121.697 Y32.088 E57.05245
G1 X121.916 Y32.275 E57.06586
G1 X122.002 Y32.37 E57.07182
G1 X122.072 Y32.46 E57.07713
G1 X122.212 Y32.671 E57.08892
G1 X122.256 Y32.756 E57.09338
G1 X122.256 Y157.327 E62.89393
G1 X120.711 Y157.385 E62.96592
G1 X120.394 Y157.393 E62.98069
M204 S3000
M205 X10 Y10
G0 F3000 X119.577 Y157.761
G0 X115.386 Y158.051
G0 X115.116 Y158.047
G0 X111.332 Y158.369
M204 S1800
M205 X8 Y8
G1 F1500 X111.652 Y158.351 E62.99561
G1 X111.339 Y158.484 E62.99786
G1 X111.254 Y158.373 E63.00296
G1 X111.332 Y158.369
M204 S3000
M205 X10 Y10
G0 F3000 X110.405 Y159.923
G0 X106.651 Y161.582
G0 X102.038 Y163.897
M204 S1800
M205 X8 Y8
G1 F1500 X102.735 Y163.787 E63.03582
G1 X103.5 Y163.649 E63.07202
G1 X104.553 Y163.435 E63.12205
G1 X105.532 Y163.224 E63.16868
G1 X106.206 Y163.056 E63.20103
G1 X106.655 Y162.823 E63.22458
G1 X106.662 Y162.838
G1 X106.686 Y162.888 E63.22717
G1 X106.934 Y163.173 E63.24476
G1 X107.157 Y163.397 E63.25948
G1 X107.442 Y163.617 E63.27624
G1 X108.499 Y164.262 E63.3339
G1 X108.713 Y164.405 E63.34588
G1 X108.985 Y164.606 E63.36163
G1 X109.196 Y164.777 E63.37428
G1 X109.449 Y165.002 E63.39004
G1 X109.715 Y165.255 E63.40714
G1 X110.322 Y165.888 E63.44798
G1 X111.448 Y167.145 E63.52656
G1 X111.828 Y167.594 E63.55395
G1 X112.166 Y168.023 E63.57938
G1 X112.416 Y168.368 E63.59922
G1 X112.624 Y168.693 E63.61718
G1 X112.808 Y169.017 E63.63453
G1 X112.978 Y169.354 E63.65211
G1 X113.17 Y169.776 E63.6737
G1 X113.309 Y170.144 E63.69201
G1 X113.435 Y170.551 E63.71185
G1 X113.738 Y171.722 E63.76818
G1 X113.902 Y172.258 E63.79428
G1 X114.088 Y172.74 E63.81833
G1 X114.3 Y173.174 E63.84082
G1 X115.063 Y174.434 E63.90941
G1 X115.887 Y175.734 E63.98108
G1 X116.066 Y175.971 E63.99491
G1 X116.232 Y176.149 E64.00625
G1 X116.188 Y176.204 E64.00953
G1 X115.764 Y176.918 E64.04819
G1 X115.592 Y177.174 E64.06255
G1 X115.474 Y177.324 E64.07144
G1 X115.284 Y177.525 E64.08432
G1 X115.165 Y177.635 E64.09187
G1 X115.043 Y177.731 E64.09909
G1 X114.925 Y177.811 E64.10573
G1 X114.8 Y177.879 E64.11236
G1 X114.681 Y177.93 E64.11839
G1 X114.497 Y177.991 E64.12741
G1 X114.324 Y178.036 E64.13574
G1 X114.127 Y178.073 E64.14507
G1 X113.929 Y178.092 E64.15433
G1 X113.562 Y178.107 E64.17144
G1 X113.272 Y178.108 E64.18494
G1 X113.117 Y178.098 E64.19217
G1 X112.675 Y178.021 E64.21306
G1 X112.267 Y177.911 E64.23274
G1 X111.859 Y177.759 E64.25301
G1 X111.491 Y177.581 E64.27205
G1 X111.11 Y177.351 E64.29277
G1 X110.761 Y177.095 E64.31293
G1 X110.425 Y176.797 E64.33384
G1 X110.084 Y176.435 E64.357
G1 X109.766 Y176.083 E64.37908
G1 X109.409 Y175.72 E64.40279
G1 X109.038 Y175.378 E64.42629
G1 X108.649 Y175.053 E64.44989
G1 X108.237 Y174.743 E64.4739
G1 X107.801 Y174.445 E64.49849
G1 X107.335 Y174.153 E64.5241
G1 X106.026 Y173.397 E64.59449
G1 X105.273 Y172.933 E64.63567
G1 X104.618 Y172.501 E64.67221
G1 X102.925 Y171.313 E64.76851
G1 X102.447 Y171.006 E64.79496
G1 X101.972 Y170.72 E64.82078
G1 X101.488 Y170.451 E64.84657
G1 X100.985 Y170.189 E64.87298
G1 X99.508 Y169.488 E64.9491
G1 X99.314 Y169.385 E64.95933
G1 X98.299 Y168.596 E65.01919
G1 X95.838 Y166.622 E65.1661
G1 X95.802 Y166.593 E65.16825
G1 X95.617 Y166.445 E65.17928
G1 X95.394 Y166.266 E65.1926
G1 X95.291 Y166.184 E65.19873
G1 X95.435 Y166.215 E65.19963
G1 X95.796 Y166.223 E65.20887
G1 X96.123 Y166.191 E65.22067
G1 X96.168 Y166.181 E65.22274
G1 X97.121 Y165.967 E65.26822
G1 X97.488 Y165.897 E65.28561
G1 X97.881 Y165.839 E65.30411
G1 X98.863 Y165.726 E65.35014
G1 X99.258 Y165.62 E65.36918
G1 X99.629 Y165.444 E65.3883
G1 X99.949 Y165.227 E65.40631
G1 X100.235 Y164.987 E65.42369
G1 X100.843 Y164.412 E65.46266
G1 X101.487 Y163.772 E65.50494
G1 X102.038 Y163.897 E65.53124
M204 S3000
M205 X10 Y10
G0 F3000 X101.556 Y163.213
M204 S1800
M205 X8 Y8
G1 F1500 X102.057 Y163.327 E65.55517
G1 X102.642 Y163.235 E65.58274
G1 X103.394 Y163.099 E65.61833
G1 X104.438 Y162.887 E65.66793
G1 X105.405 Y162.678 E65.714
G1 X106.006 Y162.529 E65.74283
G1 X106.73 Y162.151 E65.78086
G1 X106.902 Y162.062 E65.78988
G1 X106.979 Y162.022 E65.79392
G1 X106.988 Y162.224 E65.79844
G1 X107.072 Y162.399 E65.8053
G1 X107.158 Y162.577 E65.81451
G1 X107.344 Y162.791 E65.82771
G1 X107.528 Y162.976 E65.83986
G1 X107.76 Y163.155 E65.8535
G1 X108.791 Y163.784 E65.90974
G1 X109.045 Y163.954 E65.92397
G1 X109.331 Y164.165 E65.94052
G1 X109.559 Y164.35 E65.95419
G1 X109.835 Y164.596 E65.97141
G1 X110.11 Y164.857 E65.98906
G1 X110.739 Y165.514 E66.03142
G1 X111.865 Y166.771 E66.11
G1 X112.268 Y167.247 E66.13904
G1 X112.606 Y167.676 E66.16447
G1 X112.878 Y168.052 E66.18608
G1 X113.101 Y168.399 E66.20529
