;FLAVOR:Marlin
;TIME:3137
;Filament used: 1.95217m
;Layer height: 0.15
;Generated with Cura_SteamEngine 3.6.0
M140 S60
M105
M190 S60
M104 S200
M105
M109 S200
M82 ;absolute extrusion mode
G21 ;metric values
G90 ;absolute positioning
M82 ;set extruder to absolute mode
M107 ;start with the fan off
G28 X0 Y0 ;move X/Y to min endstops
G28 Z0 ;move Z to min endstops
G1 Z15.0 F100 ;move the platform down 15mm
G92 E0 ;zero the extruded length
G1 F200 E3 ;extrude 3mm of feed stock
G92 E0 ;zero the extruded length again
G1 F100
M117 Printing...
G5
G92 E0
G1 F2400 E-6
;LAYER_COUNT:23
;LAYER:0
M106 S255
M204 S3000
M205 X10 Y10
G0 F3000 X72.135 Y53.343 Z0.2
M204 S1800
M205 X8 Y8
;TYPE:SKIRT
G1 F2400 E0
G1 X75.263 Y48.987 E0.24971
G1 X79.014 Y42.978 E0.57956
G1 X79.426 Y42.393 E0.61287
G1 X79.901 Y41.858 E0.64619
G1 X80.432 Y41.38 E0.67946
G1 X81.014 Y40.963 E0.71279
G1 X81.534 Y40.666 E0.74068
G1 X81.679 Y40.592 E0.74826
G1 X82.333 Y40.303 E0.78155
G1 X83.015 Y40.089 E0.81484
G1 X83.718 Y39.952 E0.84819
G1 X84.43 Y39.895 E0.88145
G1 X85.089 Y39.913 E0.91214
G1 X88.707 Y40.197 E1.08113
G1 X94.054 Y40.369 E1.33024
G1 X99.339 Y40.241 E1.5764
G1 X104.607 Y39.814 E1.82251
G1 X109.885 Y39.084 E2.07061
G1 X114.893 Y38.119 E2.3081
G1 X115.601 Y38.023 E2.34137
G1 X116.317 Y38.007 E2.37471
G1 X117.029 Y38.07 E2.408
G1 X117.73 Y38.213 E2.44131
G1 X118.41 Y38.433 E2.47459
G1 X119.062 Y38.728 E2.50791
G1 X119.677 Y39.093 E2.54121
G1 X120.247 Y39.525 E2.57452
G1 X120.766 Y40.018 E2.60785
G1 X121.351 Y40.738 E2.65105
G1 X124.144 Y44.736 E2.87814
G1 X127.393 Y48.938 E3.12547
G1 X130.897 Y52.976 E3.37442
G1 X132.955 Y55.145 E3.51364
G1 X133.418 Y55.691 E3.54698
G1 X133.638 Y56.001 E3.56468
G1 X134.678 Y57.561 E3.65198
G1 X135.041 Y58.177 E3.68527
G1 X135.333 Y58.83 E3.71858
G1 X135.597 Y59.706 E3.76118
G1 X136.024 Y61.603 E3.85173
G1 X137.387 Y66.777 E4.10087
G1 X139.025 Y71.821 E4.34781
G1 X140.943 Y76.76 E4.59452
G1 X143.137 Y81.576 E4.84095
G1 X145.593 Y86.254 E5.08697
G1 X148.341 Y90.832 E5.3356
G1 X150.35 Y93.863 E5.50493
G1 X150.712 Y94.48 E5.53824
G1 X151.002 Y95.134 E5.57155
G1 X151.217 Y95.816 E5.60485
G1 X151.355 Y96.518 E5.63816
G1 X151.416 Y97.399 E5.67928
G1 X151.416 Y100.205 E5.80994
G1 X151.376 Y100.919 E5.84324
G1 X151.257 Y101.624 E5.87653
G1 X151.059 Y102.312 E5.90987
G1 X150.786 Y102.973 E5.94317
G1 X150.442 Y103.6 E5.97647
G1 X150.029 Y104.184 E6.00978
G1 X149.664 Y104.605 E6.03572
G1 X148.316 Y106.029 E6.12703
G1 X144.79 Y110.041 E6.37574
G1 X141.52 Y114.216 E6.62267
G1 X138.505 Y118.546 E6.86836
G1 X135.72 Y123.074 E7.11589
G1 X133.209 Y127.728 E7.36213
G1 X130.967 Y132.512 E7.60814
G1 X128.959 Y137.511 E7.85899
G1 X128.129 Y139.871 E7.97548
G1 X126.559 Y145.002 E8.22534
G1 X124.817 Y152.093 E8.56534
G1 X124.608 Y152.777 E8.59865
G1 X124.174 Y153.716 E8.64681
G1 X123.458 Y154.983 E8.71458
G1 X123.274 Y155.289 E8.73121
G1 X120.707 Y159.292 E8.95264
G1 X118.099 Y163.711 E9.19157
G1 X117.524 Y164.531 E9.2382
G1 X115.187 Y167.364 E9.40921
G1 X114.702 Y167.889 E9.44249
G1 X114.161 Y168.357 E9.4758
G1 X113.664 Y168.705 E9.50405
G1 X111.501 Y170.069 E9.62312
G1 X110.875 Y170.416 E9.65645
G1 X109.984 Y170.767 E9.70104
G1 X107.494 Y171.54 E9.82245
G1 X106.801 Y171.714 E9.85572
G1 X106.208 Y171.799 E9.88361
G1 X104.395 Y171.973 E9.96842
G1 X103.345 Y171.987 E10.01732
G1 X97.979 Y171.618 E10.26777
G1 X97.269 Y171.529 E10.30109
G1 X96.574 Y171.362 E10.33437
G1 X96.045 Y171.177 E10.36047
G1 X94.665 Y170.626 E10.42966
G1 X94.016 Y170.324 E10.46299
G1 X93.283 Y169.864 E10.50329
G1 X90.835 Y168.09 E10.64406
G1 X90.151 Y167.519 E10.68555
G1 X88.694 Y166.116 E10.77973
G1 X84.706 Y162.566 E11.02835
G1 X81.284 Y159.814 E11.23283
G1 X80.741 Y159.324 E11.26688
G1 X79.802 Y158.373 E11.32911
G1 X79.329 Y157.836 E11.36244
G1 X78.918 Y157.251 E11.39573
G1 X78.71 Y156.889 E11.41517
G1 X77.511 Y154.642 E11.53376
G1 X77.21 Y153.993 E11.56707
G1 X76.967 Y153.255 E11.60325
G1 X76.238 Y150.479 E11.7369
G1 X76.075 Y149.628 E11.77724
G1 X75.188 Y142.353 E12.11851
G1 X74.208 Y137.162 E12.36449
G1 X73.625 Y134.658 E12.48421
G1 X72.19 Y129.504 E12.73333
G1 X70.473 Y124.456 E12.98161
G1 X69.53 Y122.03 E13.10281
G1 X68.514 Y119.617 E13.22472
G1 X66.242 Y114.803 E13.47259
G1 X63.694 Y110.115 E13.72104
G1 X62.367 Y107.903 E13.84116
G1 X59.622 Y103.694 E14.07514
G1 X59.266 Y103.074 E14.10843
G1 X58.98 Y102.418 E14.14175
G1 X58.77 Y101.734 E14.17507
G1 X58.637 Y101.031 E14.20839
G1 X58.583 Y100.193 E14.24749
G1 X58.585 Y97.387 E14.37815
G1 X58.625 Y96.673 E14.41145
G1 X58.745 Y95.968 E14.44475
G1 X58.943 Y95.281 E14.47804
G1 X59.15 Y94.763 E14.50401
G1 X60.154 Y92.535 E14.61781
G1 X62.173 Y87.512 E14.86988
G1 X63.005 Y85.147 E14.98662
G1 X64.577 Y80.015 E15.23655
G1 X65.845 Y74.844 E15.48447
G1 X66.365 Y72.257 E15.60734
G1 X66.799 Y69.715 E15.72742
G1 X67.488 Y64.334 E15.98003
G1 X67.767 Y61.609 E16.10758
G1 X67.859 Y61.003 E16.13612
G1 X68.089 Y59.855 E16.19064
G1 X68.268 Y59.162 E16.22396
G1 X68.524 Y58.494 E16.25727
G1 X68.979 Y57.653 E16.3018
G1 X69.57 Y56.733 E16.35272
G1 X69.871 Y56.304 E16.37712
G1 X72.135 Y53.343 E16.55068
M204 S3000
M205 X10 Y10
G0 F3000 X72.591 Y53.669
M204 S1800
M205 X8 Y8
G1 F2400 X75.728 Y49.3 E16.80113
G1 X79.489 Y43.275 E17.13185
G1 X79.884 Y42.717 E17.16369
G1 X80.342 Y42.21 E17.1955
G1 X80.855 Y41.759 E17.22731
G1 X81.418 Y41.372 E17.25912
G1 X81.788 Y41.165 E17.27886
G1 X81.933 Y41.091 E17.28644
G1 X82.559 Y40.817 E17.31826
G1 X83.212 Y40.617 E17.35006
G1 X83.885 Y40.495 E17.38191
G1 X84.567 Y40.453 E17.41372
G1 X85.045 Y40.471 E17.436
G1 X88.688 Y40.757 E17.60615
G1 X94.05 Y40.93 E17.85596
G1 X99.362 Y40.801 E18.10338
G1 X104.677 Y40.37 E18.35168
G1 X109.973 Y39.638 E18.60063
G1 X114.999 Y38.669 E18.83897
G1 X115.676 Y38.579 E18.87077
G1 X116.359 Y38.569 E18.90258
G1 X117.039 Y38.638 E18.93441
G1 X117.706 Y38.787 E18.96623
G1 X118.351 Y39.012 E18.99804
G1 X118.965 Y39.312 E19.02986
G1 X119.54 Y39.681 E19.06167
G1 X120.068 Y40.114 E19.09347
G1 X120.542 Y40.607 E19.12532
G1 X120.892 Y41.059 E19.15194
G1 X123.694 Y45.071 E19.3798
G1 X126.957 Y49.29 E19.62816
G1 X130.485 Y53.356 E19.87882
G1 X132.549 Y55.531 E20.01844
G1 X133.172 Y56.312 E20.06496
G1 X134.212 Y57.872 E20.15226
G1 X134.557 Y58.461 E20.18405
G1 X134.831 Y59.087 E20.21587
G1 X135.05 Y59.829 E20.25189
G1 X135.479 Y61.733 E20.34277
G1 X136.848 Y66.932 E20.59311
G1 X138.496 Y72.004 E20.84144
G1 X140.425 Y76.973 E21.08964
G1 X142.629 Y81.812 E21.33724
G1 X145.115 Y86.546 E21.58622
G1 X147.863 Y91.126 E21.83492
G1 X149.883 Y94.172 E22.00511
G1 X150.227 Y94.763 E22.03695
G1 X150.499 Y95.389 E22.06874
G1 X150.696 Y96.043 E22.10054
G1 X150.816 Y96.716 E22.13237
G1 X150.856 Y97.399 E22.16423
G1 X150.856 Y100.205 E22.29489
G1 X150.816 Y100.887 E22.3267
G1 X150.697 Y101.56 E22.35852
G1 X150.5 Y102.214 E22.39033
G1 X150.227 Y102.841 E22.42217
G1 X149.884 Y103.431 E22.45395
G1 X149.257 Y104.22 E22.50088
G1 X147.911 Y105.642 E22.59205
G1 X144.359 Y109.684 E22.84261
G1 X141.072 Y113.88 E23.09081
G1 X138.029 Y118.251 E23.3388
G1 X135.236 Y122.792 E23.58704
G1 X132.709 Y127.474 E23.83479
G1 X130.451 Y132.294 E24.08263
G1 X128.442 Y137.294 E24.33354
G1 X127.588 Y139.72 E24.4533
G1 X126.021 Y144.844 E24.70281
G1 X124.273 Y151.96 E25.04401
G1 X124.072 Y152.613 E25.07582
G1 X123.686 Y153.44 E25.11832
G1 X122.97 Y154.707 E25.18608
G1 X122.802 Y154.986 E25.20125
G1 X120.23 Y158.997 E25.42312
G1 X117.616 Y163.426 E25.66259
G1 X117.092 Y164.174 E25.70512
G1 X114.755 Y167.007 E25.87613
G1 X114.29 Y167.508 E25.90795
G1 X113.77 Y167.951 E25.93976
G1 X113.365 Y168.231 E25.96269
G1 X111.202 Y169.595 E26.08176
G1 X110.604 Y169.925 E26.11357
G1 X109.818 Y170.232 E26.15286
G1 X107.328 Y171.005 E26.27426
G1 X106.665 Y171.169 E26.30606
G1 X106.155 Y171.241 E26.33005
G1 X104.342 Y171.415 E26.41486
G1 X103.383 Y171.428 E26.45951
G1 X98.017 Y171.059 E26.70997
G1 X97.34 Y170.973 E26.74175
G1 X96.677 Y170.807 E26.77357
G1 X96.252 Y170.657 E26.79456
G1 X94.872 Y170.106 E26.86375
G1 X94.254 Y169.816 E26.89554
G1 X93.611 Y169.411 E26.93092
G1 X91.163 Y167.637 E27.07169
G1 X90.54 Y167.115 E27.10954
G1 X89.098 Y165.727 E27.20274
G1 X85.065 Y162.137 E27.45415
G1 X81.635 Y159.378 E27.65913
G1 X81.139 Y158.93 E27.69025
G1 X80.2 Y157.979 E27.75248
G1 X79.75 Y157.466 E27.78426
G1 X79.204 Y156.625 E27.83094
G1 X78.005 Y154.378 E27.94954
G1 X77.719 Y153.758 E27.98133
G1 X77.509 Y153.112 E28.01296
G1 X76.78 Y150.336 E28.14661
G1 X76.631 Y149.56 E28.1834
G1 X75.743 Y142.276 E28.52509
G1 X74.756 Y137.045 E28.77296
G1 X74.163 Y134.5 E28.89464
G1 X72.728 Y129.345 E29.14381
G1 X70.999 Y124.264 E29.39372
G1 X70.054 Y121.831 E29.51526
G1 X69.027 Y119.392 E29.63849
G1 X66.74 Y114.547 E29.88796
G1 X64.18 Y109.838 E30.13754
G1 X62.838 Y107.601 E30.25901
G1 X60.091 Y103.388 E30.4932
G1 X59.752 Y102.795 E30.52501
G1 X59.485 Y102.166 E30.55683
G1 X59.292 Y101.511 E30.58862
G1 X59.178 Y100.837 E30.62045
G1 X59.143 Y100.194 E30.65044
G1 X59.145 Y97.388 E30.7811
G1 X59.185 Y96.706 E30.81291
G1 X59.305 Y96.033 E30.84474
G1 X59.503 Y95.379 E30.87656
G1 X59.66 Y94.993 E30.89596
G1 X60.669 Y92.753 E31.01036
G1 X62.697 Y87.71 E31.26346
G1 X63.545 Y85.298 E31.38251
G1 X65.115 Y80.172 E31.63214
G1 X66.397 Y74.946 E31.8827
G1 X66.91 Y72.392 E32.004
G1 X67.351 Y69.805 E32.1262
G1 X68.046 Y64.388 E32.38051
G1 X68.324 Y61.666 E32.50791
G1 X68.408 Y61.113 E32.53396
G1 X68.638 Y59.965 E32.58848
G1 X68.811 Y59.304 E32.62029
G1 X69.06 Y58.668 E32.6521
G1 X69.45 Y57.956 E32.6899
G1 X70.041 Y57.036 E32.74081
G1 X70.316 Y56.644 E32.76311
G1 X72.591 Y53.669 E32.9375
M204 S3000
M205 X10 Y10
G0 F3000 X73.047 Y53.995
M204 S1800
M205 X8 Y8
G1 F2400 X76.188 Y49.62 E33.18829
G1 X79.964 Y43.571 E33.52033
G1 X80.341 Y43.042 E33.55057
G1 X80.781 Y42.564 E33.58083
G1 X81.275 Y42.143 E33.61105
G1 X82.043 Y41.664 E33.6532
G1 X82.188 Y41.59 E33.66078
G1 X82.784 Y41.331 E33.69104
G1 X83.407 Y41.147 E33.72128
G1 X84.047 Y41.041 E33.75149
G1 X85.002 Y41.029 E33.79596
G1 X88.671 Y41.317 E33.96733
G1 X94.045 Y41.49 E34.2177
G1 X99.385 Y41.361 E34.46642
G1 X104.747 Y40.926 E34.71692
G1 X110.042 Y40.194 E34.96582
G1 X115.105 Y39.218 E35.20592
G1 X115.749 Y39.135 E35.23615
G1 X116.398 Y39.131 E35.26637
G1 X117.044 Y39.207 E35.29666
G1 X117.675 Y39.362 E35.32692
G1 X118.282 Y39.593 E35.35716
G1 X118.856 Y39.897 E35.3874
G1 X119.388 Y40.269 E35.41763
G1 X119.871 Y40.704 E35.4479
G1 X120.433 Y41.379 E35.4888
G1 X123.244 Y45.403 E35.71736
G1 X126.534 Y49.659 E35.96785
G1 X130.053 Y53.714 E36.21785
G1 X132.143 Y55.916 E36.35922
G1 X132.706 Y56.622 E36.40127
G1 X133.746 Y58.182 E36.48857
G1 X134.073 Y58.744 E36.51885
G1 X134.328 Y59.341 E36.54907
G1 X134.504 Y59.951 E36.57864
G1 X134.934 Y61.862 E36.66985
G1 X136.311 Y67.092 E36.92168
G1 X137.972 Y72.203 E37.17192
G1 X139.91 Y77.194 E37.42123
G1 X142.123 Y82.054 E37.66988
G1 X144.624 Y86.817 E37.92039
G1 X147.383 Y91.412 E38.16995
G1 X149.417 Y94.481 E38.3414
G1 X149.742 Y95.044 E38.37167
G1 X149.995 Y95.642 E38.4019
G1 X150.173 Y96.267 E38.43216
G1 X150.273 Y96.909 E38.46242
G1 X150.296 Y97.399 E38.48526
G1 X150.296 Y100.205 E38.61592
G1 X150.256 Y100.853 E38.64615
G1 X150.137 Y101.492 E38.67641
G1 X149.94 Y102.111 E38.70666
G1 X149.669 Y102.701 E38.73689
G1 X149.327 Y103.254 E38.76717
G1 X148.85 Y103.835 E38.80217
G1 X147.493 Y105.269 E38.8941
G1 X143.934 Y109.318 E39.14512
G1 X140.616 Y113.554 E39.39568
G1 X137.565 Y117.936 E39.64431
G1 X134.756 Y122.504 E39.89401
G1 X132.203 Y127.235 E40.14433
G1 X129.934 Y132.076 E40.39328
G1 X127.923 Y137.083 E40.64453
G1 X127.058 Y139.54 E40.76582
G1 X125.482 Y144.691 E41.01665
G1 X123.73 Y151.826 E41.35875
G1 X123.536 Y152.446 E41.38901
G1 X123.199 Y153.165 E41.42598
G1 X122.483 Y154.432 E41.49375
G1 X122.331 Y154.684 E41.50745
G1 X119.755 Y158.702 E41.72969
G1 X117.134 Y163.142 E41.96977
G1 X116.66 Y163.818 E42.00822
G1 X114.323 Y166.651 E42.17923
G1 X113.88 Y167.126 E42.20947
G1 X113.381 Y167.542 E42.23972
G1 X113.066 Y167.757 E42.25748
G1 X110.903 Y169.121 E42.37655
G1 X110.334 Y169.433 E42.40677
G1 X109.652 Y169.698 E42.44084
G1 X107.162 Y170.471 E42.56224
G1 X106.531 Y170.625 E42.59249
G1 X106.101 Y170.684 E42.6127
G1 X104.288 Y170.858 E42.6975
G1 X103.422 Y170.87 E42.73783
G1 X98.056 Y170.501 E42.98829
G1 X97.412 Y170.416 E43.01853
G1 X96.783 Y170.253 E43.04879
G1 X96.46 Y170.137 E43.06477
G1 X95.08 Y169.586 E43.13396
G1 X94.493 Y169.308 E43.16421
G1 X93.94 Y168.957 E43.19471
G1 X91.492 Y167.183 E43.33548
G1 X90.928 Y166.712 E43.36969
G1 X89.476 Y165.314 E43.46355
G1 X85.413 Y161.697 E43.71685
G1 X81.986 Y158.941 E43.92162
G1 X81.538 Y158.537 E43.94971
G1 X80.599 Y157.586 E44.01194
G1 X80.172 Y157.096 E44.04221
G1 X79.698 Y156.362 E44.08289
G1 X78.499 Y154.115 E44.20149
G1 X78.229 Y153.524 E44.23174
G1 X78.05 Y152.97 E44.25885
G1 X77.321 Y150.194 E44.3925
G1 X77.187 Y149.492 E44.42577
G1 X76.295 Y142.181 E44.76873
G1 X75.305 Y136.933 E45.01741
G1 X74.712 Y134.386 E45.13918
G1 X73.257 Y129.159 E45.39182
G1 X71.53 Y124.085 E45.6414
G1 X70.577 Y121.631 E45.76398
G1 X69.54 Y119.167 E45.88847
G1 X67.234 Y114.284 E46.13992
G1 X64.672 Y109.57 E46.38974
G1 X63.31 Y107.299 E46.51305
G1 X60.56 Y103.082 E46.74748
G1 X60.24 Y102.517 E46.77771
G1 X59.991 Y101.917 E46.80796
G1 X59.817 Y101.291 E46.83822
G1 X59.722 Y100.648 E46.86848
G1 X59.703 Y100.194 E46.88964
G1 X59.705 Y97.388 E47.0203
G1 X59.745 Y96.74 E47.05053
G1 X59.865 Y96.101 E47.0808
G1 X60.171 Y95.223 E47.1241
G1 X61.185 Y92.972 E47.23906
G1 X63.216 Y87.921 E47.49256
G1 X64.075 Y85.478 E47.61314
G1 X65.657 Y80.313 E47.86467
G1 X66.944 Y75.066 E48.11624
G1 X67.461 Y72.494 E48.2384
G1 X67.907 Y69.878 E48.36197
G1 X68.6 Y64.476 E48.61557
G1 X68.881 Y61.723 E48.74442
G1 X68.957 Y61.223 E48.76797
G1 X69.187 Y60.075 E48.82249
G1 X69.353 Y59.447 E48.85274
G1 X69.596 Y58.844 E48.88301
G1 X69.922 Y58.258 E48.91424
G1 X70.513 Y57.338 E48.96515
G1 X70.761 Y56.984 E48.98528
G1 X73.047 Y53.995 E49.1605
M204 S3000
M205 X10 Y10
G1 F2400 E43.1605
;MESH:LOL_bookmark_v1.stl
G0 F3000 X85.996 Y59.196
G0 X87.52 Y59.187
G0 X93.907 Y62.555
M204 S1800
M205 X8 Y8
;TYPE:WALL-INNER
G1 F2400 E49.1605
G1 F1500 X93.135 Y62.841 E49.19883
G1 X92.562 Y63.37 E49.23515
G1 X92.229 Y64.07 E49.27124
G1 X92.182 Y64.889 E49.30944
G1 X92.47 Y65.658 E49.34768
G1 X92.995 Y66.223 E49.38359
G1 X93.695 Y66.561 E49.41979
G1 X94.513 Y66.604 E49.45793
G1 X95.276 Y66.326 E49.49574
G1 X95.849 Y65.8 E49.53196
G1 X96.188 Y65.095 E49.56839
G1 X96.231 Y64.275 E49.60662
G1 X95.948 Y63.509 E49.64465
G1 X95.419 Y62.936 E49.68096
G1 X94.721 Y62.605 E49.71693
G1 X93.907 Y62.555 E49.7549
M204 S3000
M205 X10 Y10
G0 F3000 X94.876 Y63.21
G0 X106.898 Y72.813
M204 S1800
M205 X8 Y8
G1 F1500 X106.585 Y73.147 E49.77622
G1 X106.499 Y73.239 E49.78208
G1 X106.412 Y73.36 E49.78902
G1 X106.135 Y73.745 E49.81111
G1 X106.095 Y73.275 E49.81845
G1 X106.081 Y73.123 E49.82254
G1 X106.06 Y72.998 E49.82844
G1 X105.988 Y72.586 E49.84792
G1 X105.641 Y71.943 E49.88194
G1 X104.843 Y71.38 E49.92741
G1 X104.322 Y71.173 E49.95352
G1 X103.726 Y71.054 E49.98182
G1 X101.333 Y71.044 E50.09325
G1 X98.885 Y71.466 E50.20892
G1 X96.647 Y72.426 E50.32231
G1 X95.317 Y73.593 E50.4047
G1 X94.361 Y75.173 E50.49069
G1 X94.113 Y77.683 E50.60814
G1 X94.563 Y79.245 E50.68383
G1 X95.437 Y80.578 E50.75805
G1 X96.847 Y81.585 E50.83873
G1 X98.396 Y82.147 E50.91546
G1 X100.857 Y82.515 E51.03133
G1 X103.275 Y82.484 E51.14393
G1 X105.403 Y82.249 E51.24362
G1 X107.544 Y81.552 E51.34846
G1 X109.062 Y80.45 E51.43581
G1 X110.194 Y78.855 E51.52688
G1 X110.714 Y76.86 E51.62288
G1 X110.628 Y75.667 E51.67858
G1 X110.19 Y74.551 E51.7344
G1 X108.713 Y72.991 E51.83444
G1 X108.191 Y72.712 E51.862
G1 X107.617 Y72.634 E51.88897
G1 X106.898 Y72.813 E51.92347
M204 S3000
M205 X10 Y10
G0 F3000 X110.938 Y66.166
M204 S1800
M205 X8 Y8
G1 F1500 X111.596 Y65.674 E51.96173
G1 X111.998 Y65.009 E51.99791
G1 X112.119 Y64.24 E52.03416
G1 X111.938 Y63.45 E52.0719
G1 X111.45 Y62.79 E52.11012
G1 X110.782 Y62.389 E52.1464
G1 X110.015 Y62.262 E52.1826
G1 X109.219 Y62.449 E52.22068
G1 X108.558 Y62.937 E52.25893
G1 X108.162 Y63.604 E52.29505
