;FLAVOR:Marlin
;TIME:864
;Filament used: 0.718213m
;Layer height: 0.2
;Generated with Cura_SteamEngine 3.6.0
M140 S60
M105
M190 S60
M104 S200
M105
M109 S200
M82 ;absolute extrusion mode
G21 ;metric values
G90 ;absolute positioning
M82 ;set extruder to absolute mode
M107 ;start with the fan off
G28 X0 Y0 ;move X/Y to min endstops
G28 Z0 ;move Z to min endstops
G1 Z15.0 F100 ;move the platform down 15mm
G92 E0 ;zero the extruded length
G1 F200 E3 ;extrude 3mm of feed stock
G92 E0 ;zero the extruded length again
G1 F100
M117 Printing...
G5
G92 E0
G1 F2400 E-6
;LAYER_COUNT:100
;LAYER:0
M106 S255
M204 S3000
M205 X10 Y10
G0 F3000 X96.632 Y89.457 Z0.2
M204 S1800
M205 X8 Y8
;TYPE:SKIRT
G1 F2400 E0
G1 X97.857 Y88.217 E0.08116
G1 X97.949 Y88.126 E0.08719
G1 X98.416 Y87.672 E0.11752
G1 X98.956 Y87.203 E0.15082
G1 X99.545 Y86.797 E0.18413
G1 X100.175 Y86.459 E0.21742
G1 X100.839 Y86.194 E0.25071
G1 X101.529 Y86.005 E0.28403
G1 X102.236 Y85.893 E0.31736
G1 X102.875 Y85.861 E0.34715
G1 X107.113 Y85.86 E0.54449
G1 X107.828 Y85.9 E0.57783
G1 X108.533 Y86.019 E0.61113
G1 X109.22 Y86.216 E0.6444
G1 X109.882 Y86.489 E0.67775
G1 X110.508 Y86.834 E0.71103
G1 X111.093 Y87.246 E0.74435
G1 X111.607 Y87.701 E0.77631
G1 X112.83 Y88.906 E0.85626
G1 X112.924 Y89.001 E0.86248
G1 X113.401 Y89.491 E0.89432
G1 X113.87 Y90.03 E0.92759
G1 X114.277 Y90.619 E0.96093
G1 X114.615 Y91.249 E0.99422
G1 X114.881 Y91.913 E1.02753
G1 X115.071 Y92.603 E1.06085
G1 X115.182 Y93.309 E1.09413
G1 X115.215 Y93.955 E1.12425
G1 X115.215 Y116.042 E2.15271
G1 X115.175 Y116.756 E2.18601
G1 X115.056 Y117.461 E2.21931
G1 X114.858 Y118.149 E2.25264
G1 X114.585 Y118.81 E2.28594
G1 X114.241 Y119.437 E2.31924
G1 X113.828 Y120.021 E2.35255
G1 X113.338 Y120.57 E2.38682
G1 X111.638 Y122.268 E2.4987
G1 X111.104 Y122.745 E2.53204
G1 X110.521 Y123.158 E2.56531
G1 X109.895 Y123.505 E2.59863
G1 X109.234 Y123.779 E2.63195
G1 X108.547 Y123.978 E2.66526
G1 X107.842 Y124.099 E2.69857
G1 X107.115 Y124.14 E2.73247
G1 X102.884 Y124.14 E2.92948
G1 X102.17 Y124.1 E2.96278
G1 X101.465 Y123.981 E2.99608
G1 X100.777 Y123.783 E3.02941
G1 X100.116 Y123.51 E3.06271
G1 X99.489 Y123.166 E3.09601
G1 X98.905 Y122.753 E3.12932
G1 X98.365 Y122.272 E3.16299
G1 X96.666 Y120.578 E3.27471
G1 X96.189 Y120.046 E3.30798
G1 X95.774 Y119.463 E3.34131
G1 X95.426 Y118.838 E3.37462
G1 X95.151 Y118.178 E3.40791
G1 X94.95 Y117.491 E3.44124
G1 X94.828 Y116.787 E3.47451
G1 X94.785 Y116.046 E3.50907
G1 X94.785 Y93.955 E4.53772
G1 X94.825 Y93.241 E4.57102
G1 X94.944 Y92.536 E4.60431
G1 X95.142 Y91.848 E4.63765
G1 X95.415 Y91.187 E4.67095
G1 X95.759 Y90.56 E4.70425
G1 X96.172 Y89.976 E4.73756
G1 X96.632 Y89.457 E4.76985
M204 S3000
M205 X10 Y10
G0 F3000 X97.03 Y89.851
M204 S1800
M205 X8 Y8
G1 F2400 X98.255 Y88.611 E4.85101
G1 X98.339 Y88.528 E4.85651
G1 X98.806 Y88.074 E4.88684
G1 X99.323 Y87.627 E4.91866
G1 X99.889 Y87.243 E4.95051
G1 X100.495 Y86.929 E4.98229
G1 X101.134 Y86.687 E5.01411
G1 X101.797 Y86.522 E5.04592
G1 X102.475 Y86.435 E5.07775
G1 X102.876 Y86.421 E5.09644
G1 X107.114 Y86.42 E5.29378
G1 X107.796 Y86.46 E5.32559
G1 X108.468 Y86.579 E5.35737
G1 X109.123 Y86.776 E5.38921
G1 X109.749 Y87.048 E5.421
G1 X110.34 Y87.391 E5.45281
G1 X110.887 Y87.801 E5.48465
G1 X111.214 Y88.1 E5.50528
G1 X112.437 Y89.305 E5.58522
G1 X112.523 Y89.391 E5.59089
G1 X113 Y89.881 E5.62273
G1 X113.447 Y90.398 E5.65455
G1 X113.83 Y90.963 E5.68634
G1 X114.146 Y91.57 E5.7182
G1 X114.388 Y92.208 E5.74998
G1 X114.554 Y92.871 E5.7818
G1 X114.641 Y93.549 E5.81363
G1 X114.655 Y93.955 E5.83255
G1 X114.655 Y116.042 E6.86101
G1 X114.615 Y116.724 E6.89282
G1 X114.496 Y117.397 E6.92465
G1 X114.299 Y118.051 E6.95645
G1 X114.026 Y118.678 E6.98829
G1 X113.683 Y119.268 E7.02007
G1 X113.273 Y119.815 E7.0519
G1 X112.942 Y120.174 E7.07464
G1 X111.242 Y121.872 E7.18652
G1 X110.731 Y122.326 E7.21835
G1 X110.171 Y122.717 E7.25015
G1 X109.569 Y123.039 E7.28194
G1 X108.933 Y123.29 E7.31378
G1 X108.272 Y123.464 E7.34561
G1 X107.596 Y123.56 E7.3774
G1 X107.115 Y123.58 E7.39982
G1 X102.884 Y123.58 E7.59683
G1 X102.202 Y123.54 E7.62864
G1 X101.529 Y123.421 E7.66047
G1 X100.875 Y123.224 E7.69227
G1 X100.248 Y122.951 E7.72411
G1 X99.658 Y122.608 E7.75589
G1 X99.111 Y122.198 E7.78772
G1 X98.761 Y121.876 E7.80987
G1 X97.062 Y120.182 E7.92159
G1 X96.607 Y119.672 E7.95341
G1 X96.215 Y119.112 E7.98524
G1 X95.891 Y118.511 E8.01703
G1 X95.639 Y117.876 E8.04885
G1 X95.463 Y117.215 E8.0807
G1 X95.366 Y116.539 E8.1125
G1 X95.345 Y116.046 E8.13547
G1 X95.345 Y93.955 E9.16412
G1 X95.385 Y93.273 E9.19593
G1 X95.504 Y92.6 E9.22776
G1 X95.701 Y91.946 E9.25956
G1 X95.974 Y91.319 E9.29141
G1 X96.317 Y90.729 E9.32318
G1 X96.727 Y90.182 E9.35502
G1 X97.03 Y89.851 E9.37591
M204 S3000
M205 X10 Y10
G0 F3000 X97.429 Y90.244
M204 S1800
M205 X8 Y8
G1 F2400 X98.654 Y89.004 E9.45707
G1 X98.73 Y88.929 E9.46205
G1 X99.197 Y88.475 E9.49237
G1 X99.689 Y88.052 E9.52259
G1 X100.23 Y87.692 E9.55285
G1 X100.811 Y87.402 E9.58308
G1 X101.424 Y87.185 E9.61336
G1 X102.058 Y87.045 E9.64359
G1 X102.876 Y86.981 E9.6818
G1 X107.114 Y86.98 E9.87914
G1 X107.762 Y87.02 E9.90937
G1 X108.401 Y87.139 E9.93964
G1 X109.02 Y87.336 E9.96988
G1 X109.61 Y87.607 E10.00012
G1 X110.163 Y87.948 E10.03037
G1 X110.821 Y88.499 E10.07033
G1 X112.044 Y89.704 E10.15028
G1 X112.121 Y89.782 E10.15538
G1 X112.598 Y90.272 E10.18722
G1 X113.022 Y90.764 E10.21747
G1 X113.382 Y91.305 E10.24773
G1 X113.673 Y91.886 E10.27798
G1 X113.89 Y92.498 E10.30822
G1 X114.031 Y93.133 E10.33851
G1 X114.095 Y93.955 E10.3769
G1 X114.095 Y116.042 E11.40536
G1 X114.055 Y116.69 E11.43559
G1 X113.936 Y117.329 E11.46586
G1 X113.739 Y117.948 E11.49611
G1 X113.468 Y118.538 E11.52634
G1 X113.126 Y119.091 E11.55662
G1 X112.546 Y119.778 E11.59848
G1 X110.846 Y121.476 E11.71036
G1 X110.359 Y121.906 E11.74061
G1 X109.823 Y122.273 E11.77086
G1 X109.246 Y122.571 E11.8011
G1 X108.637 Y122.796 E11.83133
G1 X108.004 Y122.945 E11.86161
G1 X107.115 Y123.02 E11.90316
G1 X102.884 Y123.02 E12.10017
G1 X102.236 Y122.98 E12.1304
G1 X101.597 Y122.861 E12.16067
G1 X100.978 Y122.664 E12.19091
G1 X100.388 Y122.393 E12.22115
G1 X99.835 Y122.051 E12.25142
G1 X99.156 Y121.479 E12.29276
G1 X97.457 Y119.785 E12.40448
G1 X97.026 Y119.299 E12.43473
G1 X96.658 Y118.764 E12.46497
G1 X96.359 Y118.187 E12.49523
G1 X96.132 Y117.578 E12.52549
G1 X95.982 Y116.946 E12.55574
G1 X95.905 Y116.046 E12.5978
G1 X95.905 Y93.955 E13.62645
G1 X95.945 Y93.307 E13.65668
G1 X96.064 Y92.668 E13.68694
G1 X96.261 Y92.049 E13.71719
G1 X96.532 Y91.459 E13.74742
G1 X96.874 Y90.906 E13.7777
G1 X97.429 Y90.244 E13.81792
M204 S3000
M205 X10 Y10
G1 F2400 E7.81792
;MESH:cover-2.4mm-26mm.stl
G0 F3000 X100.956 Y93.229
G0 X102.033 Y94.305
G0 X103.112 Y96.858
G0 X107.42 Y97.39
M204 S1800
M205 X8 Y8
;TYPE:WALL-INNER
G1 F2400 E13.81792
G1 F1500 X107.42 Y94.524 E13.95138
G1 X107.425 Y94.529 E13.95171
G1 X107.425 Y97.39 E13.95278
G1 X107.425 Y115.47 E14.79466
G1 X106.542 Y116.35 E14.85271
G1 X103.455 Y116.35 E14.99645
G1 X102.575 Y115.47 E15.0544
G1 X102.58 Y97.39 E15.89628
G1 X107.42 Y97.39 E16.12165
M204 S3000
M205 X10 Y10
G0 F3000 X103.07 Y96.9
G0 X103.14 Y96.83
M204 S1800
M205 X8 Y8
G1 F1500 X106.86 Y96.83 E16.29487
G1 X106.86 Y93.849 E16.43368
G1 X106.86 Y93.848 E16.43373
G1 X106.86 Y93.175 E16.46507
G1 X107.337 Y93.651 E16.48194
G1 X107.985 Y94.297 E16.52455
G1 X107.985 Y115.701 E17.52121
G1 X106.773 Y116.91 E17.60092
G1 X103.223 Y116.91 E17.76623
G1 X102.015 Y115.702 E17.84577
G1 X102.015 Y94.298 E18.84243
G1 X102.663 Y93.65 E18.88511
G1 X103.14 Y93.173 E18.91652
G1 X103.14 Y93.847 E18.93341
G1 X103.14 Y93.848 E18.93346
G1 X103.14 Y96.83 E19.07231
M204 S3000
M205 X10 Y10
G0 F3000 X103.07 Y96.9
G0 X103.672 Y93.642
G0 X106.702 Y93.14
G0 X106.794 Y93.11
M204 S1800
M205 X8 Y8
G1 F1500 X106.774 Y93.11 E19.07324
G1 X103.223 Y93.11 E19.23859
G1 X103.203 Y93.11 E19.23952
G1 X103.223 Y93.09 E19.23982
G1 X106.774 Y93.09 E19.24573
G1 X106.794 Y93.11 E19.24603
M204 S3000
M205 X10 Y10
G0 F3000 X106.702 Y93.14
G0 X107.893 Y94.335
G0 X108.545 Y94.066
M204 S1800
M205 X8 Y8
;TYPE:WALL-OUTER
G1 F1500 X108.545 Y115.934 E20.26429
G1 X107.004 Y117.47 E20.36561
G1 X102.991 Y117.47 E20.55247
G1 X101.455 Y115.934 E20.65362
G1 X101.455 Y94.066 E21.67188
G1 X102.991 Y92.53 E21.77303
G1 X107.005 Y92.53 E21.95994
G1 X108.545 Y94.066 E22.06122
M204 S3000
M205 X10 Y10
G0 F3000 X108.545 Y94.266
G0 X107.893 Y94.335
G0 X106.888 Y96.858
G0 X103.112 Y96.858
G0 X103.04 Y93.67
G0 X103.7 Y93.67
M204 S1800
M205 X8 Y8
G1 F1500 X103.7 Y96.27 E22.18229
G1 X106.3 Y96.27 E22.30335
G1 X106.3 Y93.67 E22.42442
G1 X103.7 Y93.67 E22.54549
M204 S3000
M205 X10 Y10
G0 F3000 X103.7 Y93.87
G0 X103.04 Y93.87
G0 X103.13 Y97.94
M204 S1800
M205 X8 Y8
;TYPE:SKIN
G1 F1500 X106.875 Y97.94 E22.71987
G1 X106.875 Y115.242 E23.52552
G1 X106.314 Y115.8 E23.56237
G1 X103.683 Y115.8 E23.68488
G1 X103.125 Y115.242 E23.72162
G1 X103.13 Y97.94 E24.52728
M204 S3000
M205 X10 Y10
G0 F3000 X106.615 Y98.695
M204 S1800
M205 X8 Y8
G1 F1500 X106.119 Y98.2 E24.55991
M204 S3000
M205 X10 Y10
G0 F3000 X105.327 Y98.2
M204 S1800
M205 X8 Y8
G1 F1500 X106.615 Y99.487 E24.64469
M204 S3000
M205 X10 Y10
G0 F3000 X106.615 Y100.279
M204 S1800
M205 X8 Y8
G1 F1500 X104.535 Y98.2 E24.78163
M204 S3000
M205 X10 Y10
G0 F3000 X103.743 Y98.2
M204 S1800
M205 X8 Y8
G1 F1500 X106.615 Y101.071 E24.97072
M204 S3000
M205 X10 Y10
G0 F3000 X106.615 Y101.863
M204 S1800
M205 X8 Y8
G1 F1500 X103.388 Y98.636 E25.18323
M204 S3000
M205 X10 Y10
G0 F3000 X103.388 Y99.428
M204 S1800
M205 X8 Y8
G1 F1500 X106.615 Y102.655 E25.39573
M204 S3000
M205 X10 Y10
G0 F3000 X106.615 Y103.447
M204 S1800
M205 X8 Y8
G1 F1500 X103.388 Y100.22 E25.60823
M204 S3000
M205 X10 Y10
G0 F3000 X103.388 Y101.012
M204 S1800
M205 X8 Y8
G1 F1500 X106.615 Y104.239 E25.82074
M204 S3000
M205 X10 Y10
G0 F3000 X106.615 Y105.031
M204 S1800
M205 X8 Y8
G1 F1500 X103.387 Y101.803 E26.03331
M204 S3000
M205 X10 Y10
G0 F3000 X103.387 Y102.595
M204 S1800
M205 X8 Y8
G1 F1500 X106.615 Y105.823 E26.24588
M204 S3000
M205 X10 Y10
G0 F3000 X106.615 Y106.615
M204 S1800
M205 X8 Y8
G1 F1500 X103.387 Y103.387 E26.45845
M204 S3000
M205 X10 Y10
G0 F3000 X103.387 Y104.179
M204 S1800
M205 X8 Y8
G1 F1500 X106.615 Y107.407 E26.67101
M204 S3000
M205 X10 Y10
G0 F3000 X106.615 Y108.199
M204 S1800
M205 X8 Y8
G1 F1500 X103.387 Y104.971 E26.88358
M204 S3000
M205 X10 Y10
G0 F3000 X103.386 Y105.762
M204 S1800
M205 X8 Y8
G1 F1500 X106.615 Y108.991 E27.09622
M204 S3000
M205 X10 Y10
G0 F3000 X106.615 Y109.783
M204 S1800
M205 X8 Y8
G1 F1500 X103.386 Y106.554 E27.30885
M204 S3000
M205 X10 Y10
G0 F3000 X103.386 Y107.346
M204 S1800
M205 X8 Y8
G1 F1500 X106.615 Y110.575 E27.52149
M204 S3000
M205 X10 Y10
G0 F3000 X106.615 Y111.367
M204 S1800
M205 X8 Y8
G1 F1500 X103.386 Y108.138 E27.73412
M204 S3000
M205 X10 Y10
G0 F3000 X103.386 Y108.929
M204 S1800
M205 X8 Y8
G1 F1500 X106.615 Y112.159 E27.94679
M204 S3000
M205 X10 Y10
G0 F3000 X106.615 Y112.951
M204 S1800
M205 X8 Y8
G1 F1500 X103.386 Y109.721 E28.15946
M204 S3000
M205 X10 Y10
G0 F3000 X103.386 Y110.513
M204 S1800
M205 X8 Y8
G1 F1500 X106.615 Y113.743 E28.37213
M204 S3000
M205 X10 Y10
G0 F3000 X106.615 Y114.535
M204 S1800
M205 X8 Y8
G1 F1500 X103.386 Y111.305 E28.5848
M204 S3000
M205 X10 Y10
G0 F3000 X103.385 Y112.096
M204 S1800
M205 X8 Y8
G1 F1500 X106.517 Y115.229 E28.79108
M204 S3000
M205 X10 Y10
G0 F3000 X106.035 Y115.539
M204 S1800
M205 X8 Y8
G1 F1500 X103.385 Y112.888 E28.96562
M204 S3000
M205 X10 Y10
G0 F3000 X103.385 Y113.68
M204 S1800
M205 X8 Y8
G1 F1500 X105.243 Y115.539 E29.088
M204 S3000
M205 X10 Y10
G0 F3000 X104.451 Y115.539
M204 S1800
M205 X8 Y8
G1 F1500 X103.385 Y114.472 E29.15823
G1 X103.315 Y114.402
M204 S3000
M205 X10 Y10
G0 F3000 X102.786 Y97.129
M204 S1800
M205 X8 Y8
;TYPE:SKIN
G1 F1500 X102.289 Y96.632 E29.16992
M204 S3000
M205 X10 Y10
G0 F3000 X102.289 Y96.915
M204 S1800
M205 X8 Y8
G1 F1500 X102.503 Y97.129 E29.17496
M204 S3000
M205 X10 Y10
G0 F3000 X102.864 Y96.924
M204 S1800
M205 X8 Y8
G1 F1500 X102.289 Y96.349 E29.18848
M204 S3000
M205 X10 Y10
G0 F3000 X102.289 Y96.066
M204 S1800
M205 X8 Y8
G1 F1500 X102.864 Y96.641 E29.202
M204 S3000
M205 X10 Y10
G0 F3000 X102.864 Y96.358
M204 S1800
M205 X8 Y8
G1 F1500 X102.289 Y95.783 E29.21552
M204 S3000
M205 X10 Y10
G0 F3000 X102.289 Y95.501
M204 S1800
M205 X8 Y8
G1 F1500 X102.864 Y96.076 E29.22905
M204 S3000
M205 X10 Y10
G0 F3000 X102.864 Y95.793
M204 S1800
M205 X8 Y8
G1 F1500 X102.289 Y95.218 E29.24257
M204 S3000
M205 X10 Y10
G0 F3000 X102.289 Y94.935
M204 S1800
M205 X8 Y8
G1 F1500 X102.864 Y95.51 E29.25609
M204 S3000
M205 X10 Y10
G0 F3000 X102.864 Y95.227
M204 S1800
M205 X8 Y8
G1 F1500 X102.289 Y94.652 E29.26962
M204 S3000
M205 X10 Y10
G0 F3000 X102.31 Y94.39
M204 S1800
M205 X8 Y8
G1 F1500 X102.864 Y94.944 E29.28265
M204 S3000
M205 X10 Y10
G0 F3000 X102.864 Y94.661
M204 S1800
M205 X8 Y8
G1 F1500 X102.451 Y94.249 E29.29235
M204 S3000
M205 X10 Y10
G0 F3000 X102.728 Y94.243
M204 S1800
M205 X8 Y8
G1 F1500 X102.799 Y94.031 E29.30177
M204 S3000
M205 X10 Y10
G0 F3000 X102.58 Y94.169
;MESH:NONMESH
G0 X102.98 Y96.99
;TIME_ELAPSED:32.962739
;LAYER:1
M140 S60
;MESH:cover-2.4mm-26mm.stl
G0 F4500 X102.98 Y96.99 Z0.4
M204 S1800
M205 X8 Y8
;TYPE:WALL-INNER
G1 F2250 X107.02 Y96.99 E29.43614
G1 X107.02 Y94.042 E29.53419
G1 X107.02 Y94.041 E29.53422
G1 X107.02 Y93.56 E29.55022
G1 X107.361 Y93.9 E29.55884
G1 X107.825 Y94.364 E29.58066
G1 X107.825 Y115.636 E30.28817
G1 X106.71 Y116.75 E30.34059
G1 X103.289 Y116.75 E30.45438
G1 X102.175 Y115.636 E30.50678
G1 X102.175 Y94.364 E31.21429
G1 X102.64 Y93.899 E31.23616
G1 X102.98 Y93.559 E31.25215
G1 X102.98 Y94.039 E31.26074
G1 X102.98 Y94.041 E31.26081
G1 X102.98 Y96.99 E31.35889
M204 S3000
M205 X10 Y10
G0 F4500 X103.31 Y93.28
G0 X103.38 Y93.35
M204 S1800
M205 X8 Y8
G1 F2250 X103.38 Y96.59 E31.46665
G1 X106.62 Y96.59 E31.57442
G1 X106.62 Y93.35 E31.68218
G1 X103.38 Y93.35 E31.78994
M204 S3000
M205 X10 Y10
G0 F4500 X103.31 Y93.28
G0 X106.648 Y93.322
G0 X108.133 Y94.236
G0 X108.225 Y94.198
M204 S1800
M205 X8 Y8
G1 F2250 X108.225 Y115.802 E32.50849
G1 X106.876 Y117.15 E32.57192
G1 X103.123 Y117.15 E32.69675
G1 X101.775 Y115.802 E32.76015
G1 X101.775 Y94.198 E33.47871
G1 X103.123 Y92.85 E33.54211
G1 X106.876 Y92.85 E33.66694
G1 X108.225 Y94.198 E33.73037
M204 S3000
M205 X10 Y10
G0 F4500 X108.625 Y94.032
M204 S1800
M205 X8 Y8
;TYPE:WALL-OUTER
G1 F2250 X108.625 Y115.968 E34.45996
G1 X107.042 Y117.55 E34.5344
G1 X102.957 Y117.55 E34.67026
G1 X101.375 Y115.968 E34.74468
G1 X101.375 Y94.032 E35.47427
G1 X102.957 Y92.45 E35.54868
G1 X107.042 Y92.45 E35.68455
G1 X108.625 Y94.032 E35.75899
M204 S3000
M205 X10 Y10
G0 F4500 X108.625 Y94.232
G0 X108.125 Y94.232
G0 X106.648 Y93.322
G0 X103.352 Y93.322
G0 X103.28 Y93.75
G0 X103.78 Y93.75
M204 S1800
M205 X8 Y8
G1 F2250 X103.78 Y96.19 E35.84014
G1 X106.22 Y96.19 E35.9213
G1 X106.22 Y93.75 E36.00245
G1 X103.78 Y93.75 E36.08361
M204 S3000
M205 X10 Y10
G0 F4500 X103.78 Y93.95
G0 X102.59 Y94.499
M204 S1800
M205 X8 Y8
;TYPE:SKIN
G1 F1350 X102.59 Y97.38 E36.17943
G1 X107.41 Y97.38 E36.33974
G1 X107.41 Y94.501 E36.4355
G1 X107.435 Y94.526 E36.43667
G1 X107.435 Y115.476 E37.13347
G1 X106.55 Y116.36 E37.17508
G1 X103.449 Y116.36 E37.27822
G1 X102.565 Y115.476 E37.3198
G1 X102.565 Y94.524 E38.01666
G1 X102.59 Y94.499 E38.01784
M204 S3000
M205 X10 Y10
G0 F4500 X102.745 Y98.072
M204 S1800
M205 X8 Y8
G1 F1350 X103.258 Y97.56 E38.04195
M204 S3000
M205 X10 Y10
G0 F4500 X103.823 Y97.56
M204 S1800
M205 X8 Y8
G1 F1350 X102.745 Y98.638 E38.09265
M204 S3000
M205 X10 Y10
G0 F4500 X102.745 Y99.204
M204 S1800
M205 X8 Y8
G1 F1350 X104.389 Y97.56 E38.16998
M204 S3000
M205 X10 Y10
G0 F4500 X104.955 Y97.56
M204 S1800
M205 X8 Y8
G1 F1350 X102.745 Y99.769 E38.27391
M204 S3000
M205 X10 Y10
G0 F4500 X102.745 Y100.335
M204 S1800
M205 X8 Y8
G1 F1350 X105.52 Y97.56 E38.40444
M204 S3000
M205 X10 Y10
G0 F4500 X106.086 Y97.56
M204 S1800
M205 X8 Y8
G1 F1350 X102.745 Y100.901 E38.56159
M204 S3000
M205 X10 Y10
G0 F4500 X102.745 Y101.466
M204 S1800
M205 X8 Y8
G1 F1350 X106.652 Y97.56 E38.74534
M204 S3000
M205 X10 Y10
G0 F4500 X107.217 Y97.56
