;FLAVOR:Marlin
;TIME:1617
;Filament used: 1.13503m
;Layer height: 0.2
;Generated with Cura_SteamEngine 3.6.0
M140 S60
M105
M190 S60
M104 S200
M105
M109 S200
M82 ;absolute extrusion mode
G21 ;metric values
G90 ;absolute positioning
M82 ;set extruder to absolute mode
M107 ;start with the fan off
G28 X0 Y0 ;move X/Y to min endstops
G28 Z0 ;move Z to min endstops
G1 Z15.0 F100 ;move the platform down 15mm
G92 E0 ;zero the extruded length
G1 F200 E3 ;extrude 3mm of feed stock
G92 E0 ;zero the extruded length again
G1 F100
M117 Printing...
G5
G92 E0
G1 F2400 E-6
;LAYER_COUNT:118
;LAYER:0
M106 S255
M204 S3000
M205 X10 Y10
G0 F3000 X95.962 Y87.502 Z0.2
M204 S1800
M205 X8 Y8
;TYPE:SKIRT
G1 F2400 E0
G1 X97.471 Y85.978 E0.09987
G1 X97.556 Y85.894 E0.10543
G1 X98.039 Y85.424 E0.13681
G1 X98.578 Y84.955 E0.17008
G1 X99.167 Y84.549 E0.20339
G1 X99.797 Y84.211 E0.23668
G1 X100.462 Y83.945 E0.27003
G1 X101.151 Y83.755 E0.30331
G1 X101.858 Y83.644 E0.33664
G1 X102.501 Y83.611 E0.36662
G1 X107.489 Y83.61 E0.59888
G1 X108.203 Y83.65 E0.63218
G1 X108.908 Y83.769 E0.66547
G1 X109.596 Y83.966 E0.69879
G1 X110.257 Y84.239 E0.73209
G1 X110.884 Y84.584 E0.76542
G1 X111.468 Y84.996 E0.7987
G1 X112.008 Y85.477 E0.83237
G1 X114.009 Y87.471 E0.96391
G1 X114.486 Y88.003 E0.99718
G1 X114.901 Y88.585 E1.03047
G1 X115.249 Y89.21 E1.06378
G1 X115.525 Y89.87 E1.09709
G1 X115.725 Y90.557 E1.1304
G1 X115.848 Y91.262 E1.16373
G1 X115.891 Y92.004 E1.19834
G1 X115.89 Y117.992 E2.40845
G1 X115.85 Y118.706 E2.44175
G1 X115.731 Y119.412 E2.47508
G1 X115.533 Y120.099 E2.50838
G1 X115.26 Y120.76 E2.54168
G1 X114.915 Y121.387 E2.575
G1 X114.503 Y121.971 E2.60828
G1 X114.014 Y122.519 E2.64248
G1 X112.015 Y124.517 E2.77408
G1 X111.482 Y124.993 E2.80736
G1 X110.899 Y125.407 E2.84065
G1 X110.273 Y125.754 E2.87398
G1 X109.612 Y126.028 E2.9073
G1 X108.925 Y126.227 E2.94061
G1 X108.221 Y126.348 E2.97387
G1 X107.491 Y126.39 E3.00792
G1 X102.505 Y126.39 E3.24008
G1 X101.791 Y126.35 E3.27338
G1 X101.086 Y126.231 E3.30668
G1 X100.398 Y126.033 E3.34001
G1 X99.737 Y125.76 E3.37331
G1 X99.11 Y125.416 E3.40661
G1 X98.526 Y125.003 E3.43992
G1 X98.002 Y124.538 E3.47254
G1 X96.478 Y123.029 E3.57241
G1 X96.39 Y122.94 E3.57823
G1 X95.919 Y122.455 E3.60972
G1 X95.45 Y121.915 E3.64302
G1 X95.044 Y121.325 E3.67637
G1 X94.707 Y120.695 E3.70964
G1 X94.442 Y120.03 E3.74297
G1 X94.253 Y119.341 E3.77624
G1 X94.142 Y118.634 E3.80956
G1 X94.11 Y117.996 E3.83931
G1 X94.11 Y92.005 E5.04956
G1 X94.15 Y91.291 E5.08286
G1 X94.269 Y90.586 E5.11615
G1 X94.467 Y89.898 E5.14949
G1 X94.74 Y89.237 E5.18279
G1 X95.084 Y88.61 E5.21609
G1 X95.497 Y88.026 E5.24939
G1 X95.962 Y87.502 E5.28202
M204 S3000
M205 X10 Y10
G0 F3000 X96.36 Y87.896
M204 S1800
M205 X8 Y8
G1 F2400 X97.869 Y86.372 E5.38188
G1 X97.946 Y86.296 E5.38692
G1 X98.429 Y85.826 E5.4183
G1 X98.946 Y85.379 E5.45012
G1 X99.511 Y84.995 E5.48193
G1 X100.118 Y84.68 E5.51378
G1 X100.756 Y84.438 E5.54555
G1 X101.419 Y84.272 E5.57738
G1 X102.097 Y84.185 E5.60921
G1 X102.501 Y84.171 E5.62803
G1 X107.489 Y84.17 E5.86029
G1 X108.171 Y84.21 E5.8921
G1 X108.844 Y84.329 E5.92393
G1 X109.498 Y84.526 E5.95573
G1 X110.125 Y84.798 E5.98755
G1 X110.715 Y85.141 E6.01933
G1 X111.262 Y85.551 E6.05116
G1 X111.612 Y85.873 E6.07331
G1 X113.613 Y87.867 E6.20485
G1 X114.068 Y88.377 E6.23667
G1 X114.46 Y88.936 E6.26847
G1 X114.785 Y89.538 E6.30032
G1 X115.037 Y90.173 E6.33213
G1 X115.212 Y90.833 E6.36393
G1 X115.31 Y91.509 E6.39573
G1 X115.331 Y92.004 E6.4188
G1 X115.33 Y117.992 E7.62891
G1 X115.29 Y118.674 E7.66072
G1 X115.171 Y119.347 E7.69255
G1 X114.974 Y120.001 E7.72435
G1 X114.701 Y120.628 E7.7562
G1 X114.358 Y121.218 E7.78797
G1 X113.948 Y121.765 E7.81981
G1 X113.618 Y122.123 E7.84248
G1 X111.619 Y124.121 E7.97408
G1 X111.109 Y124.574 E8.00585
G1 X110.549 Y124.966 E8.03768
G1 X109.947 Y125.289 E8.06949
G1 X109.311 Y125.539 E8.10131
G1 X108.65 Y125.714 E8.13315
G1 X107.974 Y125.81 E8.16494
G1 X107.491 Y125.83 E8.18745
G1 X102.505 Y125.83 E8.41962
G1 X101.823 Y125.79 E8.45143
G1 X101.15 Y125.671 E8.48325
G1 X100.496 Y125.474 E8.51506
G1 X99.869 Y125.201 E8.5469
G1 X99.279 Y124.858 E8.57868
G1 X98.732 Y124.448 E8.61051
G1 X98.396 Y124.14 E8.63174
G1 X96.872 Y122.631 E8.7316
G1 X96.791 Y122.55 E8.73693
G1 X96.32 Y122.065 E8.76842
G1 X95.874 Y121.547 E8.80024
G1 X95.491 Y120.982 E8.83203
G1 X95.177 Y120.375 E8.86385
G1 X94.935 Y119.736 E8.89567
G1 X94.77 Y119.073 E8.92748
G1 X94.684 Y118.395 E8.9593
G1 X94.67 Y117.996 E8.97789
G1 X94.67 Y92.005 E10.18814
G1 X94.71 Y91.323 E10.21996
G1 X94.829 Y90.65 E10.25178
G1 X95.026 Y89.996 E10.28358
G1 X95.299 Y89.369 E10.31543
G1 X95.642 Y88.779 E10.34721
G1 X96.052 Y88.232 E10.37904
G1 X96.36 Y87.896 E10.40026
M204 S3000
M205 X10 Y10
G0 F3000 X96.758 Y88.29
M204 S1800
M205 X8 Y8
G1 F2400 X98.267 Y86.766 E10.50013
G1 X98.337 Y86.697 E10.5047
G1 X98.82 Y86.227 E10.53608
G1 X99.312 Y85.803 E10.56633
G1 X99.853 Y85.444 E10.59656
G1 X100.434 Y85.153 E10.62682
G1 X101.046 Y84.936 E10.65705
G1 X101.681 Y84.795 E10.68734
G1 X102.501 Y84.731 E10.72564
G1 X107.489 Y84.73 E10.9579
G1 X108.137 Y84.77 E10.98813
G1 X108.776 Y84.889 E11.0184
G1 X109.395 Y85.086 E11.04865
G1 X109.985 Y85.357 E11.07888
G1 X110.538 Y85.699 E11.10916
G1 X111.217 Y86.27 E11.15047
G1 X113.218 Y88.264 E11.28201
G1 X113.649 Y88.75 E11.31225
G1 X114.017 Y89.285 E11.34249
G1 X114.317 Y89.862 E11.37277
G1 X114.543 Y90.47 E11.40298
G1 X114.693 Y91.102 E11.43322
G1 X114.771 Y92.004 E11.47538
G1 X114.77 Y117.992 E12.68549
G1 X114.73 Y118.641 E12.71577
G1 X114.611 Y119.279 E12.74599
G1 X114.414 Y119.898 E12.77624
G1 X114.143 Y120.488 E12.80647
G1 X113.801 Y121.041 E12.83674
G1 X113.223 Y121.726 E12.87848
G1 X111.224 Y123.724 E13.01008
G1 X110.737 Y124.155 E13.04037
G1 X110.201 Y124.522 E13.07061
G1 X109.624 Y124.82 E13.10085
G1 X109.015 Y125.045 E13.13108
G1 X108.382 Y125.194 E13.16136
G1 X107.491 Y125.27 E13.203
G1 X102.505 Y125.27 E13.43517
G1 X101.857 Y125.23 E13.4654
G1 X101.218 Y125.111 E13.49567
G1 X100.599 Y124.914 E13.52592
G1 X100.009 Y124.643 E13.55615
G1 X99.456 Y124.301 E13.58643
G1 X98.79 Y123.742 E13.62691
G1 X97.266 Y122.233 E13.72678
G1 X97.193 Y122.159 E13.73162
G1 X96.722 Y121.674 E13.7631
G1 X96.299 Y121.181 E13.79335
G1 X95.94 Y120.64 E13.82358
G1 X95.65 Y120.059 E13.85382
G1 X95.433 Y119.447 E13.88405
G1 X95.293 Y118.812 E13.91433
G1 X95.23 Y117.996 E13.95244
G1 X95.23 Y92.005 E15.16269
G1 X95.27 Y91.357 E15.19292
G1 X95.389 Y90.718 E15.22319
G1 X95.586 Y90.099 E15.25344
G1 X95.857 Y89.509 E15.28367
G1 X96.199 Y88.956 E15.31395
G1 X96.758 Y88.29 E15.35443
M204 S3000
M205 X10 Y10
G1 F2400 E9.35443
;MESH:cover-2.4mm-26mm.stl
G0 F3000 X100.281 Y91.279
G0 X101.358 Y92.355
G0 X102.4 Y95.8
M204 S1800
M205 X8 Y8
;TYPE:WALL-INNER
G1 F2400 E15.35443
G1 F1500 X107.6 Y95.8 E15.59657
G1 X107.6 Y92.58 E15.7465
G1 X107.6 Y92.082 E15.76969
G1 X108.1 Y92.58 E15.78818
G1 X108.1 Y95.8 E15.92205
G1 X108.1 Y117.419 E16.92872
G1 X106.916 Y118.6 E17.00659
G1 X103.08 Y118.6 E17.18521
G1 X101.9 Y117.42 E17.26292
G1 X101.9 Y95.8 E18.26964
G1 X101.9 Y92.58 E18.41957
G1 X102.4 Y92.08 E18.4525
G1 X102.4 Y92.58 E18.46137
G1 X102.4 Y95.8 E18.59524
M204 S3000
M205 X10 Y10
G0 F3000 X102.89 Y91.09
G0 X102.96 Y91.16
M204 S1800
M205 X8 Y8
G1 F1500 X102.96 Y91.467 E18.60954
G1 X102.96 Y95.24 E18.78523
G1 X107.04 Y95.24 E18.97521
G1 X107.04 Y91.47 E19.15075
G1 X107.04 Y91.16 E19.16519
G1 X102.96 Y91.16 E19.35517
M204 S3000
M205 X10 Y10
G0 F3000 X102.89 Y91.09
G0 X107.182 Y91.014
G0 X107.253 Y90.945
M204 S1800
M205 X8 Y8
G1 F1500 X107.472 Y91.163 E19.3665
G1 X108.66 Y92.348 E19.44463
G1 X108.66 Y117.652 E20.62289
G1 X107.147 Y119.16 E20.72236
G1 X102.848 Y119.16 E20.92254
G1 X101.34 Y117.652 E21.02184
G1 X101.34 Y92.348 E22.2001
G1 X102.527 Y91.161 E22.27827
G1 X102.744 Y90.944 E22.28955
G1 X102.848 Y90.84 E22.29494
G1 X102.96 Y90.84 E22.29908
G1 X107.04 Y90.84 E22.40764
G1 X107.148 Y90.84 E22.41163
G1 X107.253 Y90.945 E22.41855
M204 S3000
M205 X10 Y10
G0 F3000 X107.182 Y91.014
G0 X108.568 Y92.386
G0 X109.22 Y92.116
M204 S1800
M205 X8 Y8
;TYPE:WALL-OUTER
G1 F1500 X109.22 Y117.884 E23.61841
G1 X107.379 Y119.72 E23.73948
G1 X102.616 Y119.72 E23.96127
G1 X100.78 Y117.884 E24.08217
G1 X100.78 Y92.116 E25.28204
G1 X102.616 Y90.28 E25.40294
G1 X107.38 Y90.28 E25.62477
G1 X109.22 Y92.116 E25.74581
M204 S3000
M205 X10 Y10
G0 F3000 X109.22 Y92.316
G0 X108.568 Y92.386
G0 X107.068 Y91.132
G0 X102.932 Y91.132
G0 X102.86 Y91.72
G0 X103.52 Y91.72
M204 S1800
M205 X8 Y8
G1 F1500 X103.52 Y94.68 E25.88364
G1 X106.48 Y94.68 E26.02147
G1 X106.48 Y91.72 E26.1593
G1 X103.52 Y91.72 E26.29713
M204 S3000
M205 X10 Y10
G0 F3000 X103.52 Y91.92
G0 X102.86 Y91.92
G0 X102.45 Y96.35
M204 S1800
M205 X8 Y8
;TYPE:SKIN
G1 F1500 X107.55 Y96.35 E26.5346
G1 X107.55 Y117.191 E27.50505
G1 X106.688 Y118.05 E27.56171
G1 X103.308 Y118.05 E27.7191
G1 X102.45 Y117.192 E27.7756
G1 X102.45 Y96.35 E28.74609
M204 S3000
M205 X10 Y10
G0 F3000 X106.906 Y96.61
M204 S1800
M205 X8 Y8
G1 F1500 X107.29 Y96.994 E28.77138
M204 S3000
M205 X10 Y10
G0 F3000 X107.29 Y97.786
M204 S1800
M205 X8 Y8
G1 F1500 X106.114 Y96.61 E28.84882
M204 S3000
M205 X10 Y10
G0 F3000 X105.322 Y96.61
M204 S1800
M205 X8 Y8
G1 F1500 X107.29 Y98.578 E28.97842
M204 S3000
M205 X10 Y10
G0 F3000 X107.29 Y99.37
M204 S1800
M205 X8 Y8
G1 F1500 X104.53 Y96.61 E29.16017
M204 S3000
M205 X10 Y10
G0 F3000 X103.738 Y96.61
M204 S1800
M205 X8 Y8
G1 F1500 X107.29 Y100.162 E29.39407
M204 S3000
M205 X10 Y10
G0 F3000 X107.29 Y100.954
M204 S1800
M205 X8 Y8
G1 F1500 X102.946 Y96.61 E29.68013
M204 S3000
M205 X10 Y10
G0 F3000 X102.709 Y97.165
M204 S1800
M205 X8 Y8
G1 F1500 X107.29 Y101.746 E29.9818
M204 S3000
M205 X10 Y10
G0 F3000 X107.29 Y102.538
M204 S1800
M205 X8 Y8
G1 F1500 X102.709 Y97.957 E30.28347
M204 S3000
M205 X10 Y10
G0 F3000 X102.709 Y98.749
M204 S1800
M205 X8 Y8
G1 F1500 X107.29 Y103.33 E30.58513
M204 S3000
M205 X10 Y10
G0 F3000 X107.29 Y104.122
M204 S1800
M205 X8 Y8
G1 F1500 X102.709 Y99.541 E30.8868
M204 S3000
M205 X10 Y10
G0 F3000 X102.709 Y100.333
M204 S1800
M205 X8 Y8
G1 F1500 X107.29 Y104.914 E31.18847
M204 S3000
M205 X10 Y10
G0 F3000 X107.29 Y105.706
M204 S1800
M205 X8 Y8
G1 F1500 X102.709 Y101.125 E31.49013
M204 S3000
M205 X10 Y10
G0 F3000 X102.709 Y101.917
M204 S1800
M205 X8 Y8
G1 F1500 X107.29 Y106.498 E31.7918
M204 S3000
M205 X10 Y10
G0 F3000 X107.29 Y107.29
M204 S1800
M205 X8 Y8
G1 F1500 X102.709 Y102.709 E32.09347
M204 S3000
M205 X10 Y10
G0 F3000 X102.709 Y103.501
M204 S1800
M205 X8 Y8
G1 F1500 X107.29 Y108.081 E32.3951
M204 S3000
M205 X10 Y10
G0 F3000 X107.29 Y108.873
M204 S1800
M205 X8 Y8
G1 F1500 X102.709 Y104.293 E32.69673
M204 S3000
M205 X10 Y10
G0 F3000 X102.709 Y105.085
M204 S1800
M205 X8 Y8
G1 F1500 X107.29 Y109.665 E32.99837
M204 S3000
M205 X10 Y10
G0 F3000 X107.29 Y110.457
M204 S1800
M205 X8 Y8
G1 F1500 X102.709 Y105.877 E33.3
M204 S3000
M205 X10 Y10
G0 F3000 X102.709 Y106.669
M204 S1800
M205 X8 Y8
G1 F1500 X107.29 Y111.249 E33.60164
M204 S3000
M205 X10 Y10
G0 F3000 X107.29 Y112.041
M204 S1800
M205 X8 Y8
G1 F1500 X102.709 Y107.461 E33.90327
M204 S3000
M205 X10 Y10
G0 F3000 X102.709 Y108.253
M204 S1800
M205 X8 Y8
G1 F1500 X107.29 Y112.833 E34.2049
M204 S3000
M205 X10 Y10
G0 F3000 X107.29 Y113.625
M204 S1800
M205 X8 Y8
G1 F1500 X102.709 Y109.045 E34.50654
M204 S3000
M205 X10 Y10
G0 F3000 X102.709 Y109.837
M204 S1800
M205 X8 Y8
G1 F1500 X107.29 Y114.417 E34.80817
M204 S3000
M205 X10 Y10
G0 F3000 X107.29 Y115.209
M204 S1800
M205 X8 Y8
G1 F1500 X102.709 Y110.628 E35.10984
M204 S3000
M205 X10 Y10
G0 F3000 X102.709 Y111.42
M204 S1800
M205 X8 Y8
G1 F1500 X107.29 Y116.001 E35.4115
M204 S3000
M205 X10 Y10
G0 F3000 X107.29 Y116.793
M204 S1800
M205 X8 Y8
G1 F1500 X102.709 Y112.212 E35.71317
M204 S3000
M205 X10 Y10
G0 F3000 X102.709 Y113.004
M204 S1800
M205 X8 Y8
G1 F1500 X107.037 Y117.333 E35.99821
M204 S3000
M205 X10 Y10
G0 F3000 X106.64 Y117.728
M204 S1800
M205 X8 Y8
G1 F1500 X102.709 Y113.796 E36.25711
M204 S3000
M205 X10 Y10
G0 F3000 X102.709 Y114.588
M204 S1800
M205 X8 Y8
G1 F1500 X105.909 Y117.789 E36.46786
M204 S3000
M205 X10 Y10
G0 F3000 X105.117 Y117.789
M204 S1800
M205 X8 Y8
G1 F1500 X102.709 Y115.38 E36.62647
M204 S3000
M205 X10 Y10
G0 F3000 X102.709 Y116.172
M204 S1800
M205 X8 Y8
G1 F1500 X104.325 Y117.789 E36.73292
M204 S3000
M205 X10 Y10
G0 F3000 X103.533 Y117.789
M204 S1800
M205 X8 Y8
G1 F1500 X102.709 Y116.964 E36.78721
G1 X102.639 Y116.894
M204 S3000
M205 X10 Y10
;MESH:NONMESH
G0 F3000 X102.8 Y95.4
;TIME_ELAPSED:38.375777
;LAYER:1
M140 S60
;MESH:cover-2.4mm-26mm.stl
G0 F4500 X102.8 Y95.4 Z0.4
M204 S1800
M205 X8 Y8
;TYPE:WALL-INNER
G1 F2250 X107.2 Y95.4 E36.93356
G1 X107.2 Y91.597 E37.06004
G1 X107.2 Y91.596 E37.06008
G1 X107.2 Y91.115 E37.07608
G1 X107.541 Y91.455 E37.08469
G1 X108.5 Y92.414 E37.1298
G1 X108.5 Y117.586 E37.96702
G1 X107.085 Y119 E38.03356
G1 X102.914 Y119 E38.17229
G1 X101.5 Y117.586 E38.2388
G1 X101.5 Y92.414 E39.07602
G1 X102.46 Y91.454 E39.12118
G1 X102.8 Y91.114 E39.13717
G1 X102.8 Y91.594 E39.14576
G1 X102.8 Y91.596 E39.14582
G1 X102.8 Y95.4 E39.27235
M204 S3000
M205 X10 Y10
G0 F4500 X103.13 Y91.33
G0 X103.2 Y91.4
M204 S1800
M205 X8 Y8
G1 F2250 X103.2 Y95 E39.39208
G1 X106.8 Y95 E39.51182
G1 X106.8 Y91.4 E39.63156
G1 X103.2 Y91.4 E39.75129
M204 S3000
M205 X10 Y10
G0 F4500 X103.13 Y91.33
G0 X106.828 Y91.372
G0 X108.808 Y92.286
G0 X108.9 Y92.248
M204 S1800
M205 X8 Y8
G1 F2250 X108.9 Y117.752 E40.59956
G1 X107.251 Y119.4 E40.6771
G1 X102.748 Y119.4 E40.82687
G1 X101.1 Y117.752 E40.90439
G1 X101.1 Y92.248 E41.75265
G1 X102.748 Y90.6 E41.83017
G1 X107.251 Y90.6 E41.97994
G1 X108.9 Y92.248 E42.05748
M204 S3000
M205 X10 Y10
G0 F4500 X109.3 Y92.082
M204 S1800
M205 X8 Y8
;TYPE:WALL-OUTER
G1 F2250 X109.3 Y117.918 E42.91679
G1 X107.417 Y119.8 E43.00534
G1 X102.582 Y119.8 E43.16615
G1 X100.7 Y117.918 E43.25467
G1 X100.7 Y92.082 E44.11398
G1 X102.582 Y90.2 E44.2025
G1 X107.417 Y90.2 E44.36332
G1 X109.3 Y92.082 E44.45186
M204 S3000
M205 X10 Y10
G0 F4500 X109.3 Y92.282
G0 X108.8 Y92.282
G0 X106.828 Y91.372
G0 X103.172 Y91.372
G0 X103.1 Y91.8
G0 X103.6 Y91.8
M204 S1800
M205 X8 Y8
G1 F2250 X103.6 Y94.6 E44.54499
G1 X106.4 Y94.6 E44.63812
G1 X106.4 Y91.8 E44.73125
G1 X103.6 Y91.8 E44.82438
M204 S3000
M205 X10 Y10
G0 F4500 X103.6 Y92
G0 X102.41 Y92.054
M204 S1800
M205 X8 Y8
;TYPE:SKIN
G1 F1350 X102.41 Y95.79 E44.94864
G1 X107.59 Y95.79 E45.12093
G1 X107.59 Y92.055 E45.24515
G1 X108.11 Y92.574 E45.26959
G1 X108.11 Y117.426 E46.09617
G1 X106.925 Y118.61 E46.15188
G1 X103.074 Y118.61 E46.27997
G1 X101.89 Y117.426 E46.33566
G1 X101.89 Y92.574 E47.16224
G1 X102.41 Y92.054 E47.1867
M204 S3000
M205 X10 Y10
G0 F4500 X102.149 Y93.012
M204 S1800
M205 X8 Y8
G1 F1350 X102.149 Y93.577 E47.19882
G1 X102.149 Y95.84 E47.24739
G1 X102.327 Y96.227 E47.25653
M204 S3000
M205 X10 Y10
G0 F4500 X102.069 Y97.051
M204 S1800
M205 X8 Y8
G1 F1350 X103.151 Y95.969 E47.30742
M204 S3000
M205 X10 Y10
G0 F4500 X103.717 Y95.969
M204 S1800
M205 X8 Y8
G1 F1350 X102.069 Y97.617 E47.38494
M204 S3000
M205 X10 Y10
G0 F4500 X102.069 Y98.183
M204 S1800
M205 X8 Y8
G1 F1350 X104.282 Y95.969 E47.48905
M204 S3000
M205 X10 Y10
G0 F4500 X104.848 Y95.969
M204 S1800
M205 X8 Y8
G1 F1350 X102.069 Y98.748 E47.61977
M204 S3000
M205 X10 Y10
G0 F4500 X102.069 Y99.314
M204 S1800
M205 X8 Y8
G1 F1350 X105.414 Y95.969 E47.77711
M204 S3000
M205 X10 Y10
G0 F4500 X105.979 Y95.969
M204 S1800
M205 X8 Y8
G1 F1350 X102.069 Y99.88 E47.96105
M204 S3000
M205 X10 Y10
G0 F4500 X102.069 Y100.445
M204 S1800
M205 X8 Y8
G1 F1350 X106.545 Y95.969 E48.17158
M204 S3000
M205 X10 Y10
G0 F4500 X107.111 Y95.969
M204 S1800
M205 X8 Y8
G1 F1350 X102.069 Y101.011 E48.40874
M204 S3000
M205 X10 Y10
G0 F4500 X102.069 Y101.577
M204 S1800
M205 X8 Y8
G1 F1350 X107.676 Y95.969 E48.6725
M204 S3000
M205 X10 Y10
G0 F4500 X107.849 Y95.797
M204 S1800
M205 X8 Y8
G1 F1350 X107.849 Y95.231 E48.68168
G1 X107.849 Y92.968 E48.71837
M204 S3000
M205 X10 Y10
G0 F4500 X107.929 Y92.889
G0 X107.929 Y96.283
M204 S1800
M205 X8 Y8
G1 F1350 X102.069 Y102.142 E48.99398
M204 S3000
M205 X10 Y10
G0 F4500 X102.069 Y102.708
M204 S1800
M205 X8 Y8
