;FLAVOR:Marlin
;TIME:8186
;Filament used: 12.0477m
;Layer height: 0.2
;Generated with Cura_SteamEngine 3.6.0
M140 S60
M105
M190 S60
M104 S200
M105
M109 S200
M82 ;absolute extrusion mode
G21 ;metric values
G90 ;absolute positioning
M82 ;set extruder to absolute mode
M107 ;start with the fan off
G28 X0 Y0 ;move X/Y to min endstops
G28 Z0 ;move Z to min endstops
G1 Z15.0 F100 ;move the platform down 15mm
G92 E0 ;zero the extruded length
G1 F200 E3 ;extrude 3mm of feed stock
G92 E0 ;zero the extruded length again
G1 F100
M117 Printing...
G5
G92 E0
G1 F2400 E-6
;LAYER_COUNT:438
;LAYER:0
M106 S255
M204 S3000
M205 X10 Y10
G0 F3000 X61.691 Y88.878 Z0.3
M204 S1800
M205 X8 Y8
;TYPE:SKIRT
G1 F2400 E0
G1 X62.294 Y88.493 E0.04997
G1 X62.767 Y88.253 E0.08702
G1 X63.075 Y88.112 E0.11068
G1 X63.741 Y87.851 E0.16064
G1 X64.432 Y87.666 E0.2106
G1 X65.139 Y87.559 E0.26055
G1 X65.738 Y87.531 E0.30243
G1 X135.741 Y87.519 E5.19188
G1 X136.455 Y87.559 E5.24183
G1 X137.16 Y87.678 E5.29177
G1 X137.753 Y87.843 E5.33476
G1 X138.043 Y87.939 E5.35609
G1 X138.709 Y88.202 E5.40611
G1 X139.341 Y88.537 E5.45607
G1 X139.931 Y88.94 E5.50597
G1 X140.268 Y89.218 E5.53649
G1 X140.499 Y89.422 E5.55801
G1 X141.008 Y89.925 E5.60799
G1 X141.458 Y90.481 E5.65795
G1 X141.843 Y91.084 E5.70792
G1 X142.103 Y91.601 E5.74834
G1 X142.255 Y91.94 E5.77429
G1 X142.511 Y92.608 E5.82426
G1 X142.69 Y93.3 E5.87418
G1 X142.791 Y94.008 E5.92414
G1 X142.815 Y94.555 E5.96238
G1 X142.825 Y113.857 E7.31055
G1 X142.807 Y114.34 E7.34431
G1 X142.725 Y115.43 E7.42066
G1 X142.665 Y115.943 E7.45673
G1 X141.818 Y121.336 E7.83803
G1 X141.291 Y126.631 E8.2097
G1 X141.063 Y131.959 E8.58218
G1 X141.043 Y138.99 E9.07327
G1 X141.001 Y139.704 E9.12322
G1 X140.88 Y140.409 E9.17319
G1 X140.68 Y141.096 E9.22316
G1 X140.406 Y141.756 E9.27308
G1 X140.227 Y142.099 E9.3001
G1 X139.947 Y142.599 E9.34013
G1 X139.563 Y143.203 E9.39012
G1 X139.114 Y143.76 E9.44009
G1 X138.606 Y144.263 E9.49002
G1 X138.045 Y144.707 E9.53999
G1 X137.155 Y145.231 E9.61213
G1 X136.827 Y145.39 E9.63759
G1 X136.167 Y145.666 E9.68756
G1 X135.48 Y145.866 E9.73753
G1 X134.775 Y145.988 E9.7875
G1 X134.036 Y146.031 E9.83921
G1 X68.029 Y146.043 E14.44955
G1 X67.315 Y146.003 E14.4995
G1 X66.61 Y145.884 E14.54944
G1 X65.922 Y145.687 E14.59942
G1 X65.261 Y145.414 E14.64938
G1 X64.898 Y145.226 E14.67793
G1 X64.395 Y144.944 E14.71821
G1 X63.792 Y144.559 E14.76818
G1 X63.235 Y144.11 E14.81815
G1 X62.732 Y143.602 E14.86808
G1 X62.289 Y143.041 E14.91801
G1 X61.749 Y142.117 E14.99276
G1 X61.593 Y141.79 E15.01806
G1 X61.321 Y141.128 E15.06805
G1 X61.125 Y140.44 E15.11802
G1 X61.007 Y139.735 E15.16794
G1 X60.97 Y139.161 E15.20812
G1 X60.792 Y130.218 E15.83288
G1 X60.346 Y124.975 E16.20041
G1 X59.594 Y119.693 E16.57305
G1 X58.857 Y115.819 E16.84849
G1 X58.763 Y115.11 E16.89845
G1 X58.744 Y114.628 E16.93214
G1 X58.731 Y94.597 E18.33123
G1 X58.771 Y93.883 E18.38118
G1 X58.889 Y93.178 E18.4311
G1 X59.059 Y92.569 E18.47527
G1 X59.156 Y92.278 E18.49669
G1 X59.42 Y91.613 E18.54667
G1 X59.756 Y90.982 E18.5966
G1 X60.161 Y90.392 E18.64658
G1 X60.43 Y90.067 E18.67605
G1 X60.633 Y89.837 E18.69748
G1 X61.135 Y89.328 E18.74741
G1 X61.691 Y88.878 E18.79737
M204 S3000
M205 X10 Y10
G0 F3000 X62.068 Y89.297
M204 S1800
M205 X8 Y8
G1 F2400 X62.649 Y88.937 E18.84511
G1 X63 Y88.762 E18.8725
G1 X63.308 Y88.621 E18.89616
G1 X63.945 Y88.373 E18.94391
G1 X64.606 Y88.202 E18.9916
G1 X65.283 Y88.109 E19.03933
G1 X65.738 Y88.091 E19.07113
G1 X135.741 Y88.079 E23.96058
G1 X136.423 Y88.119 E24.0083
G1 X137.096 Y88.238 E24.05603
G1 X137.577 Y88.375 E24.09096
G1 X137.867 Y88.471 E24.1123
G1 X138.502 Y88.723 E24.16002
G1 X139.103 Y89.048 E24.20774
G1 X139.898 Y89.638 E24.27689
G1 X140.129 Y89.842 E24.29841
G1 X140.614 Y90.323 E24.34612
G1 X141.039 Y90.858 E24.39385
G1 X141.399 Y91.439 E24.44159
G1 X141.592 Y91.83 E24.47204
G1 X141.744 Y92.169 E24.49799
G1 X141.986 Y92.807 E24.54565
G1 X142.153 Y93.47 E24.59341
G1 X142.241 Y94.148 E24.64116
G1 X142.255 Y94.555 E24.6696
G1 X142.265 Y113.857 E26.01778
G1 X142.249 Y114.298 E26.0486
G1 X142.167 Y115.388 E26.12495
G1 X142.112 Y115.856 E26.15786
G1 X141.26 Y121.282 E26.54149
G1 X140.733 Y126.568 E26.91253
G1 X140.503 Y131.958 E27.28934
G1 X140.483 Y138.988 E27.78036
G1 X140.441 Y139.67 E27.82809
G1 X140.32 Y140.343 E27.87585
G1 X140.121 Y140.996 E27.92353
G1 X139.738 Y141.825 E27.98731
G1 X139.458 Y142.325 E28.02734
G1 X139.09 Y142.901 E28.07508
G1 X138.657 Y143.43 E28.12283
G1 X138.166 Y143.904 E28.1705
G1 X137.622 Y144.318 E28.21824
G1 X136.91 Y144.727 E28.2756
G1 X136.582 Y144.886 E28.30106
G1 X135.951 Y145.148 E28.34878
G1 X135.294 Y145.334 E28.39647
G1 X134.619 Y145.442 E28.44421
G1 X134.036 Y145.471 E28.48499
G1 X68.029 Y145.483 E33.09533
G1 X67.347 Y145.443 E33.14305
G1 X66.674 Y145.324 E33.19078
G1 X66.02 Y145.127 E33.23849
G1 X65.172 Y144.737 E33.30368
G1 X64.669 Y144.455 E33.34396
G1 X64.094 Y144.087 E33.39164
G1 X63.565 Y143.654 E33.43939
G1 X63.091 Y143.162 E33.48711
G1 X62.677 Y142.618 E33.53486
G1 X62.254 Y141.876 E33.59451
G1 X62.098 Y141.549 E33.61982
G1 X61.84 Y140.916 E33.66756
G1 X61.659 Y140.257 E33.71529
G1 X61.555 Y139.582 E33.763
G1 X61.53 Y139.15 E33.79322
G1 X61.352 Y130.191 E34.4191
G1 X60.904 Y124.918 E34.78872
G1 X60.145 Y119.598 E35.16407
G1 X59.407 Y115.715 E35.44014
G1 X59.319 Y115.037 E35.48789
G1 X59.304 Y114.628 E35.51648
G1 X59.291 Y94.597 E36.91557
G1 X59.331 Y93.915 E36.96328
G1 X59.449 Y93.242 E37.01101
G1 X59.591 Y92.746 E37.04704
G1 X59.688 Y92.455 E37.06847
G1 X59.941 Y91.821 E37.11615
G1 X60.267 Y91.22 E37.1639
G1 X60.85 Y90.438 E37.23203
G1 X61.053 Y90.208 E37.25346
G1 X61.534 Y89.723 E37.30117
G1 X62.068 Y89.297 E37.34888
M204 S3000
M205 X10 Y10
G0 F3000 X62.443 Y89.719
M204 S1800
M205 X8 Y8
G1 F2400 X63.233 Y89.271 E37.41231
G1 X63.541 Y89.13 E37.43597
G1 X64.147 Y88.897 E37.48132
G1 X64.778 Y88.739 E37.52675
G1 X65.738 Y88.651 E37.59409
G1 X135.741 Y88.639 E42.48354
G1 X136.389 Y88.679 E42.52888
G1 X137.028 Y88.798 E42.57428
G1 X137.401 Y88.907 E42.60143
G1 X137.691 Y89.003 E42.62276
G1 X138.294 Y89.244 E42.66812
G1 X138.863 Y89.558 E42.71351
G1 X139.527 Y90.057 E42.77153
G1 X139.758 Y90.261 E42.79305
G1 X140.218 Y90.721 E42.83849
G1 X140.617 Y91.233 E42.88383
G1 X141.081 Y92.059 E42.95
G1 X141.233 Y92.398 E42.97595
G1 X141.462 Y93.006 E43.02133
G1 X141.614 Y93.637 E43.06666
G1 X141.695 Y94.555 E43.13103
G1 X141.705 Y113.857 E44.4792
G1 X141.69 Y114.256 E44.50709
G1 X141.608 Y115.346 E44.58344
G1 X141.559 Y115.769 E44.61318
G1 X140.704 Y121.21 E44.99788
G1 X140.174 Y126.543 E45.3722
G1 X139.943 Y131.933 E45.74902
G1 X139.923 Y138.987 E46.24172
G1 X139.881 Y139.635 E46.28707
G1 X139.76 Y140.273 E46.33243
G1 X139.562 Y140.892 E46.37782
G1 X139.25 Y141.552 E46.42881
G1 X138.97 Y142.052 E46.46884
G1 X138.618 Y142.598 E46.51421
G1 X138.202 Y143.097 E46.55959
G1 X137.728 Y143.541 E46.60495
G1 X137.203 Y143.923 E46.6503
G1 X136.666 Y144.223 E46.69326
G1 X136.338 Y144.382 E46.71872
G1 X135.737 Y144.629 E46.76411
G1 X135.111 Y144.8 E46.80943
G1 X134.468 Y144.893 E46.85481
G1 X134.036 Y144.911 E46.88501
G1 X68.029 Y144.923 E51.49536
G1 X67.381 Y144.883 E51.5407
G1 X66.742 Y144.764 E51.5861
G1 X66.123 Y144.567 E51.63147
G1 X65.446 Y144.249 E51.68372
G1 X64.943 Y143.967 E51.72399
G1 X64.397 Y143.615 E51.76937
G1 X63.898 Y143.198 E51.81479
G1 X63.454 Y142.724 E51.86015
G1 X63.072 Y142.199 E51.9055
G1 X62.76 Y141.634 E51.95058
G1 X62.604 Y141.307 E51.97589
G1 X62.36 Y140.705 E52.02126
G1 X62.193 Y140.077 E52.06664
G1 X62.09 Y139.139 E52.13255
G1 X61.911 Y130.162 E52.75969
G1 X61.46 Y124.845 E53.13239
G1 X60.7 Y119.52 E53.50809
G1 X59.957 Y115.61 E53.78608
G1 X59.875 Y114.966 E53.83143
G1 X59.864 Y114.627 E53.85512
G1 X59.851 Y94.596 E55.25421
G1 X59.891 Y93.948 E55.29955
G1 X60.009 Y93.309 E55.34494
G1 X60.122 Y92.923 E55.37303
G1 X60.219 Y92.632 E55.39446
G1 X60.462 Y92.03 E55.4398
G1 X60.777 Y91.462 E55.48517
G1 X61.269 Y90.808 E55.54233
G1 X61.472 Y90.578 E55.56375
G1 X61.931 Y90.118 E55.60914
G1 X62.443 Y89.719 E55.65448
M204 S3000
M205 X10 Y10
G1 F2400 E49.65448
;MESH:Object 1
G0 F3000 X65.015 Y93.543
G0 X65.975 Y94.763
G0 X135.026 Y95.589
M204 S1800
M205 X8 Y8
;TYPE:WALL-INNER
G1 F2400 E55.65448
G1 F1800 X135.025 Y113.814 E56.92743
G1 X66.801 Y113.815 E61.69262
G1 X66.521 Y113.815 E61.71218
G1 X66.521 Y113.535 E61.72484
G1 X66.521 Y95.309 E62.99786
G1 X134.746 Y95.309 E67.76312
G1 X135.026 Y95.309 E67.78268
G1 X135.026 Y95.589 E67.79534
M204 S3000
M205 X10 Y10
G0 F3000 X135.586 Y95.029
M204 S1800
M205 X8 Y8
G1 F1800 X135.585 Y114.374 E69.14651
G1 X66.241 Y114.375 E73.98993
G1 X65.961 Y114.375 E74.00949
G1 X65.961 Y114.095 E74.02215
G1 X65.961 Y94.749 E75.3734
G1 X135.306 Y94.749 E80.21689
G1 X135.586 Y94.749 E80.23644
G1 X135.586 Y95.029 E80.2491
M204 S3000
M205 X10 Y10
G0 F3000 X135.876 Y94.239
M204 S1800
M205 X8 Y8
;TYPE:WALL-OUTER
G1 F1800 X136.049 Y94.386 E80.26496
G1 X136.098 Y94.447 E80.27042
G1 X136.146 Y94.604 E80.28189
G1 X136.145 Y114.51 E81.67225
G1 X136.026 Y114.805 E81.69447
G1 X135.716 Y114.934 E81.71792
G1 X65.818 Y114.935 E86.60004
G1 X65.673 Y114.886 E86.61073
G1 X65.498 Y114.737 E86.62678
G1 X65.449 Y114.676 E86.63225
G1 X65.401 Y114.518 E86.64378
G1 X65.401 Y94.608 E88.03442
G1 X65.451 Y94.459 E88.0454
G1 X65.598 Y94.286 E88.06125
G1 X65.659 Y94.237 E88.06672
G1 X65.817 Y94.189 E88.07825
G1 X135.727 Y94.189 E92.96121
G1 X135.876 Y94.239 E92.97218
M204 S3000
M205 X10 Y10
G0 F3000 X136.028 Y94.368
G0 X135.516 Y94.819
G0 X134.476 Y95.859
M204 S1800
M205 X8 Y8
;TYPE:SKIN
G1 F1800 X134.475 Y113.264 E94.18786
G1 X67.071 Y113.265 E98.89578
G1 X67.071 Y95.859 E100.11152
G1 X134.476 Y95.859 E104.81951
M204 S3000
M205 X10 Y10
G0 F3000 X134.215 Y96.201
M204 S1800
M205 X8 Y8
G1 F1800 X134.133 Y96.119 E104.82761
M204 S3000
M205 X10 Y10
G0 F3000 X133.341 Y96.119
M204 S1800
M205 X8 Y8
G1 F1800 X134.215 Y96.993 E104.91394
M204 S3000
M205 X10 Y10
G0 F3000 X134.215 Y97.785
M204 S1800
M205 X8 Y8
G1 F1800 X132.549 Y96.119 E105.0785
M204 S3000
M205 X10 Y10
G0 F3000 X131.757 Y96.119
M204 S1800
M205 X8 Y8
G1 F1800 X134.215 Y98.577 E105.3213
M204 S3000
M205 X10 Y10
G0 F3000 X134.215 Y99.369
M204 S1800
M205 X8 Y8
G1 F1800 X130.965 Y96.119 E105.64233
M204 S3000
M205 X10 Y10
G0 F3000 X130.173 Y96.119
M204 S1800
M205 X8 Y8
G1 F1800 X134.215 Y100.16 E106.04154
M204 S3000
M205 X10 Y10
G0 F3000 X134.215 Y100.952
M204 S1800
M205 X8 Y8
G1 F1800 X129.381 Y96.119 E106.51898
M204 S3000
M205 X10 Y10
G0 F3000 X128.589 Y96.119
M204 S1800
M205 X8 Y8
G1 F1800 X134.215 Y101.744 E107.07465
M204 S3000
M205 X10 Y10
G0 F3000 X134.215 Y102.536
M204 S1800
M205 X8 Y8
G1 F1800 X127.797 Y96.119 E107.70856
M204 S3000
M205 X10 Y10
G0 F3000 X127.005 Y96.119
M204 S1800
M205 X8 Y8
G1 F1800 X134.215 Y103.328 E108.42069
M204 S3000
M205 X10 Y10
G0 F3000 X134.215 Y104.12
M204 S1800
M205 X8 Y8
G1 F1800 X126.213 Y96.119 E109.21106
M204 S3000
M205 X10 Y10
G0 F3000 X125.421 Y96.119
M204 S1800
M205 X8 Y8
G1 F1800 X134.215 Y104.912 E110.07966
M204 S3000
M205 X10 Y10
G0 F3000 X134.215 Y105.704
M204 S1800
M205 X8 Y8
G1 F1800 X124.629 Y96.119 E111.02649
M204 S3000
M205 X10 Y10
G0 F3000 X123.837 Y96.119
M204 S1800
M205 X8 Y8
G1 F1800 X134.215 Y106.496 E112.05156
M204 S3000
M205 X10 Y10
G0 F3000 X134.215 Y107.288
M204 S1800
M205 X8 Y8
G1 F1800 X123.045 Y96.119 E113.15485
M204 S3000
M205 X10 Y10
G0 F3000 X122.253 Y96.119
M204 S1800
M205 X8 Y8
G1 F1800 X134.215 Y108.08 E114.33638
M204 S3000
M205 X10 Y10
G0 F3000 X134.215 Y108.872
M204 S1800
M205 X8 Y8
G1 F1800 X121.461 Y96.119 E115.59614
M204 S3000
M205 X10 Y10
G0 F3000 X120.669 Y96.119
M204 S1800
M205 X8 Y8
G1 F1800 X134.215 Y109.664 E116.93413
M204 S3000
M205 X10 Y10
G0 F3000 X134.215 Y110.456
M204 S1800
M205 X8 Y8
G1 F1800 X119.877 Y96.119 E118.35036
M204 S3000
M205 X10 Y10
G0 F3000 X119.085 Y96.119
M204 S1800
M205 X8 Y8
G1 F1800 X134.215 Y111.248 E119.84481
M204 S3000
M205 X10 Y10
G0 F3000 X134.215 Y112.04
M204 S1800
M205 X8 Y8
G1 F1800 X118.294 Y96.119 E121.41745
M204 S3000
M205 X10 Y10
G0 F3000 X117.502 Y96.119
M204 S1800
M205 X8 Y8
G1 F1800 X134.215 Y112.832 E123.06832
M204 S3000
M205 X10 Y10
G0 F3000 X133.595 Y113.004
M204 S1800
M205 X8 Y8
G1 F1800 X116.71 Y96.119 E124.73618
M204 S3000
M205 X10 Y10
G0 F3000 X115.918 Y96.119
M204 S1800
M205 X8 Y8
G1 F1800 X132.803 Y113.004 E126.40404
M204 S3000
M205 X10 Y10
G0 F3000 X132.011 Y113.004
M204 S1800
M205 X8 Y8
G1 F1800 X115.126 Y96.119 E128.0719
M204 S3000
M205 X10 Y10
G0 F3000 X114.334 Y96.119
M204 S1800
M205 X8 Y8
G1 F1800 X131.219 Y113.004 E129.73976
M204 S3000
M205 X10 Y10
G0 F3000 X130.427 Y113.004
M204 S1800
M205 X8 Y8
G1 F1800 X113.542 Y96.119 E131.40761
M204 S3000
M205 X10 Y10
G0 F3000 X112.75 Y96.119
M204 S1800
M205 X8 Y8
G1 F1800 X129.635 Y113.004 E133.07547
M204 S3000
M205 X10 Y10
G0 F3000 X128.843 Y113.004
M204 S1800
M205 X8 Y8
G1 F1800 X111.958 Y96.119 E134.74333
M204 S3000
M205 X10 Y10
G0 F3000 X111.166 Y96.119
M204 S1800
M205 X8 Y8
G1 F1800 X128.051 Y113.004 E136.41119
M204 S3000
M205 X10 Y10
G0 F3000 X127.259 Y113.004
M204 S1800
M205 X8 Y8
G1 F1800 X110.374 Y96.119 E138.07905
M204 S3000
M205 X10 Y10
G0 F3000 X109.582 Y96.119
M204 S1800
M205 X8 Y8
G1 F1800 X126.467 Y113.004 E139.74691
M204 S3000
M205 X10 Y10
G0 F3000 X125.675 Y113.004
M204 S1800
M205 X8 Y8
G1 F1800 X108.79 Y96.119 E141.41477
M204 S3000
M205 X10 Y10
G0 F3000 X107.998 Y96.119
M204 S1800
M205 X8 Y8
G1 F1800 X124.883 Y113.004 E143.08263
M204 S3000
M205 X10 Y10
G0 F3000 X124.091 Y113.004
M204 S1800
M205 X8 Y8
G1 F1800 X107.206 Y96.119 E144.75049
M204 S3000
M205 X10 Y10
G0 F3000 X106.414 Y96.119
M204 S1800
M205 X8 Y8
G1 F1800 X123.299 Y113.004 E146.41835
M204 S3000
M205 X10 Y10
G0 F3000 X122.507 Y113.004
M204 S1800
M205 X8 Y8
G1 F1800 X105.622 Y96.119 E148.08621
M204 S3000
M205 X10 Y10
G0 F3000 X104.83 Y96.119
M204 S1800
M205 X8 Y8
G1 F1800 X121.715 Y113.004 E149.75406
M204 S3000
M205 X10 Y10
G0 F3000 X120.923 Y113.004
M204 S1800
M205 X8 Y8
G1 F1800 X104.038 Y96.119 E151.42192
M204 S3000
M205 X10 Y10
G0 F3000 X103.246 Y96.119
M204 S1800
M205 X8 Y8
G1 F1800 X120.131 Y113.004 E153.08978
M204 S3000
M205 X10 Y10
G0 F3000 X119.339 Y113.004
M204 S1800
M205 X8 Y8
G1 F1800 X102.454 Y96.119 E154.75764
M204 S3000
M205 X10 Y10
G0 F3000 X101.662 Y96.119
M204 S1800
M205 X8 Y8
G1 F1800 X118.547 Y113.004 E156.4255
M204 S3000
M205 X10 Y10
G0 F3000 X117.755 Y113.004
M204 S1800
M205 X8 Y8
G1 F1800 X100.87 Y96.119 E158.09336
M204 S3000
M205 X10 Y10
G0 F3000 X100.078 Y96.119
M204 S1800
M205 X8 Y8
G1 F1800 X116.963 Y113.004 E159.76122
M204 S3000
M205 X10 Y10
G0 F3000 X116.171 Y113.004
M204 S1800
M205 X8 Y8
G1 F1800 X99.286 Y96.119 E161.42908
M204 S3000
M205 X10 Y10
G0 F3000 X98.495 Y96.119
M204 S1800
M205 X8 Y8
G1 F1800 X115.38 Y113.004 E163.09694
M204 S3000
M205 X10 Y10
G0 F3000 X114.588 Y113.004
M204 S1800
M205 X8 Y8
G1 F1800 X97.703 Y96.119 E164.7648
M204 S3000
M205 X10 Y10
G0 F3000 X96.911 Y96.119
M204 S1800
M205 X8 Y8
G1 F1800 X113.796 Y113.004 E166.43266
M204 S3000
M205 X10 Y10
G0 F3000 X113.004 Y113.004
M204 S1800
M205 X8 Y8
G1 F1800 X96.119 Y96.119 E168.10052
M204 S3000
M205 X10 Y10
G0 F3000 X95.327 Y96.119
M204 S1800
M205 X8 Y8
G1 F1800 X112.212 Y113.004 E169.76837
M204 S3000
M205 X10 Y10
G0 F3000 X111.42 Y113.004
M204 S1800
M205 X8 Y8
G1 F1800 X94.535 Y96.119 E171.43623
M204 S3000
M205 X10 Y10
G0 F3000 X93.743 Y96.119
M204 S1800
M205 X8 Y8
G1 F1800 X110.628 Y113.004 E173.10409
M204 S3000
M205 X10 Y10
G0 F3000 X109.836 Y113.004
M204 S1800
M205 X8 Y8
G1 F1800 X92.951 Y96.119 E174.77195
M204 S3000
M205 X10 Y10
G0 F3000 X92.159 Y96.119
M204 S1800
M205 X8 Y8
G1 F1800 X109.044 Y113.004 E176.43981
M204 S3000
M205 X10 Y10
G0 F3000 X108.252 Y113.004
M204 S1800
M205 X8 Y8
G1 F1800 X91.367 Y96.119 E178.10767
M204 S3000
M205 X10 Y10
G0 F3000 X90.575 Y96.119
M204 S1800
M205 X8 Y8
G1 F1800 X107.46 Y113.004 E179.77553
M204 S3000
M205 X10 Y10
G0 F3000 X106.668 Y113.004
M204 S1800
M205 X8 Y8
G1 F1800 X89.783 Y96.119 E181.44339
M204 S3000
M205 X10 Y10
G0 F3000 X88.991 Y96.119
M204 S1800
M205 X8 Y8
G1 F1800 X105.876 Y113.004 E183.11125
M204 S3000
M205 X10 Y10
