;FLAVOR:Marlin
;TIME:3256
;Filament used: 1.32326m
;Layer height: 0.1
;Generated with Cura_SteamEngine 3.6.0
M140 S60
M105
M190 S60
M104 S200
M105
M109 S200
M82 ;absolute extrusion mode
G21 ;metric values
G90 ;absolute positioning
M82 ;set extruder to absolute mode
M107 ;start with the fan off
G28 X0 Y0 ;move X/Y to min endstops
G28 Z0 ;move Z to min endstops
G1 Z15.0 F100 ;move the platform down 15mm
G92 E0 ;zero the extruded length
G1 F200 E3 ;extrude 3mm of feed stock
G92 E0 ;zero the extruded length again
G1 F100
M117 Printing...
G5
G92 E0
G1 F2400 E-6
;LAYER_COUNT:15
;LAYER:0
M106 S255
M204 S3000
M205 X10 Y10
G0 F3000 X93.43 Y19.54 Z0.2
M204 S1800
M205 X8 Y8
;TYPE:SKIRT
G1 F2400 E0
G1 X93.627 Y18.853 E0.03328
G1 X93.9 Y18.191 E0.06662
G1 X94.245 Y17.565 E0.09991
G1 X94.658 Y16.981 E0.13321
G1 X95.037 Y16.545 E0.16011
G1 X95.585 Y15.97 E0.1971
G1 X96.107 Y15.48 E0.23044
G1 X96.68 Y15.052 E0.26374
G1 X97.297 Y14.691 E0.29703
G1 X97.95 Y14.4 E0.33031
G1 X98.461 Y14.231 E0.35538
G1 X100.412 Y13.674 E0.44985
G1 X101.11 Y13.516 E0.48318
G1 X101.56 Y13.457 E0.50431
G1 X104.812 Y13.146 E0.65643
G1 X105.621 Y13.12 E0.69412
G1 X108.756 Y13.218 E0.84017
G1 X109.573 Y13.296 E0.87838
G1 X111.959 Y13.68 E0.99092
G1 X112.658 Y13.833 E1.02423
G1 X113.45 Y14.111 E1.06332
G1 X114.976 Y14.761 E1.14055
G1 X115.617 Y15.078 E1.17385
G1 X116.219 Y15.464 E1.20715
G1 X116.775 Y15.915 E1.24049
G1 X117.276 Y16.425 E1.27378
G1 X117.717 Y16.988 E1.30708
G1 X118.12 Y17.646 E1.34301
G1 X118.281 Y17.949 E1.35898
G1 X118.58 Y18.598 E1.39226
G1 X118.806 Y19.277 E1.42558
G1 X118.954 Y19.977 E1.45889
G1 X119.029 Y20.948 E1.50424
G1 X119.093 Y135.001 E6.81503
G1 X119.393 Y140.297 E7.06203
G1 X119.99 Y145.549 E7.30816
G1 X120.894 Y150.822 E7.55727
G1 X121.436 Y153.332 E7.67684
G1 X122.058 Y155.871 E7.79857
G1 X123.554 Y161.018 E8.04815
G1 X125.314 Y166.001 E8.29423
G1 X127.354 Y170.882 E8.54056
G1 X130.421 Y177.096 E8.86323
G1 X130.618 Y177.535 E8.88564
G1 X131.149 Y178.852 E8.95176
G1 X131.361 Y179.466 E8.98201
G1 X132.171 Y182.265 E9.11769
G1 X132.341 Y183.026 E9.154
G1 X132.954 Y186.829 E9.33337
G1 X133.036 Y187.767 E9.37721
G1 X133.05 Y188.892 E9.4296
G1 X133.018 Y189.607 E9.46293
G1 X132.898 Y190.357 E9.49829
G1 X132.718 Y191.169 E9.53702
G1 X132.525 Y191.858 E9.57034
G1 X132.256 Y192.52 E9.60361
G1 X131.914 Y193.149 E9.63695
G1 X131.583 Y193.634 E9.66429
G1 X131.266 Y194.055 E9.68883
G1 X130.804 Y194.601 E9.72214
G1 X130.285 Y195.093 E9.75544
G1 X129.713 Y195.523 E9.78876
G1 X129.32 Y195.766 E9.81027
G1 X128.939 Y195.983 E9.83069
G1 X128.299 Y196.302 E9.86399
G1 X127.627 Y196.547 E9.89729
G1 X126.62 Y196.766 E9.94528
G1 X126.119 Y196.833 E9.96881
G1 X125.406 Y196.888 E10.00211
G1 X124.691 Y196.863 E10.03543
G1 X123.984 Y196.758 E10.06871
G1 X123.521 Y196.645 E10.0909
G1 X121.099 Y195.957 E10.20814
G1 X115.83 Y194.676 E10.46064
G1 X113.345 Y194.185 E10.57858
G1 X108.058 Y193.367 E10.8277
G1 X102.801 Y192.857 E11.07364
G1 X97.5 Y192.643 E11.32067
G1 X92.176 Y192.73 E11.56861
G1 X89.555 Y192.885 E11.69087
G1 X84.867 Y193.29 E11.90998
G1 X84.152 Y193.312 E11.94329
G1 X83.439 Y193.254 E11.9766
G1 X82.737 Y193.116 E12.00991
G1 X82.055 Y192.901 E12.04321
G1 X81.401 Y192.612 E12.0765
G1 X80.816 Y192.272 E12.10801
G1 X80.398 Y191.999 E12.13126
G1 X79.822 Y191.575 E12.16456
G1 X79.297 Y191.09 E12.19784
G1 X78.829 Y190.549 E12.23115
G1 X78.425 Y189.959 E12.26445
G1 X78.123 Y189.399 E12.29407
G1 X77.76 Y188.639 E12.33329
G1 X77.488 Y187.978 E12.36657
G1 X77.292 Y187.29 E12.39988
G1 X77.181 Y186.648 E12.43022
G1 X76.991 Y185.073 E12.50409
G1 X76.95 Y184.06 E12.5513
G1 X77.026 Y182.087 E12.64324
G1 X77.062 Y181.613 E12.66538
G1 X77.337 Y179.183 E12.77925
G1 X77.457 Y178.478 E12.81255
G1 X77.569 Y178.055 E12.83292
G1 X78.013 Y176.583 E12.90452
G1 X78.257 Y175.911 E12.93781
G1 X78.443 Y175.515 E12.95818
G1 X79.206 Y174.024 E13.03617
G1 X79.355 Y173.749 E13.05073
G1 X82.082 Y169.008 E13.30541
G1 X84.461 Y164.269 E13.55232
G1 X86.586 Y159.365 E13.80119
G1 X87.523 Y156.925 E13.92289
G1 X88.38 Y154.48 E14.04353
G1 X89.932 Y149.384 E14.29159
G1 X91.197 Y144.195 E14.54028
G1 X91.709 Y141.631 E14.66203
G1 X92.142 Y139.066 E14.78316
G1 X92.811 Y133.79 E15.0308
G1 X93.18 Y128.472 E15.27902
G1 X93.26 Y124.573 E15.46061
G1 X93.27 Y20.959 E20.28532
G1 X93.31 Y20.245 E20.31861
G1 X93.43 Y19.54 E20.35191
M204 S3000
M205 X10 Y10
G0 F3000 X93.989 Y19.605
M204 S1800
M205 X8 Y8
G1 F2400 X94.187 Y18.951 E20.38373
G1 X94.459 Y18.324 E20.41556
G1 X94.802 Y17.733 E20.44738
G1 X95.213 Y17.187 E20.4792
G1 X95.442 Y16.931 E20.49519
G1 X95.99 Y16.356 E20.53218
G1 X96.49 Y15.89 E20.564
G1 X97.04 Y15.485 E20.59581
G1 X97.634 Y15.148 E20.62761
G1 X98.264 Y14.882 E20.65945
G1 X98.615 Y14.769 E20.67662
G1 X100.566 Y14.212 E20.7711
G1 X101.233 Y14.064 E20.80291
G1 X101.613 Y14.015 E20.82075
G1 X104.865 Y13.704 E20.97287
G1 X105.603 Y13.68 E21.00725
G1 X108.738 Y13.778 E21.1533
G1 X109.484 Y13.849 E21.1882
G1 X111.87 Y14.233 E21.30073
G1 X112.537 Y14.381 E21.33254
G1 X113.231 Y14.626 E21.36681
G1 X114.757 Y15.276 E21.44405
G1 X115.368 Y15.58 E21.47582
G1 X115.941 Y15.954 E21.50769
G1 X116.465 Y16.391 E21.53946
G1 X116.935 Y16.887 E21.57128
G1 X117.344 Y17.435 E21.60312
G1 X117.625 Y17.909 E21.62877
G1 X117.786 Y18.212 E21.64475
G1 X118.071 Y18.833 E21.67657
G1 X118.281 Y19.483 E21.70837
G1 X118.414 Y20.153 E21.74018
G1 X118.469 Y20.949 E21.77734
G1 X118.533 Y135.015 E27.08873
G1 X118.835 Y140.338 E27.33699
G1 X119.437 Y145.638 E27.58536
G1 X120.342 Y150.916 E27.83472
G1 X120.894 Y153.473 E27.95652
G1 X121.519 Y156.026 E28.07891
G1 X123.019 Y161.185 E28.32909
G1 X124.792 Y166.205 E28.57699
G1 X126.839 Y171.102 E28.82413
G1 X129.919 Y177.343 E29.1482
G1 X130.098 Y177.744 E29.16865
G1 X130.629 Y179.061 E29.23477
G1 X130.823 Y179.622 E29.26241
G1 X131.633 Y182.421 E29.39809
G1 X131.789 Y183.115 E29.43122
G1 X132.402 Y186.918 E29.61059
G1 X132.476 Y187.774 E29.65059
G1 X132.49 Y188.899 E29.70298
G1 X132.458 Y189.582 E29.73482
G1 X132.352 Y190.236 E29.76567
G1 X132.172 Y191.048 E29.8044
G1 X131.985 Y191.705 E29.83621
G1 X131.723 Y192.336 E29.86802
G1 X131.389 Y192.932 E29.89983
G1 X131.135 Y193.297 E29.92054
G1 X130.818 Y193.718 E29.94508
G1 X130.376 Y194.239 E29.97689
G1 X129.876 Y194.704 E30.00869
G1 X129.043 Y195.28 E30.05585
G1 X128.662 Y195.497 E30.07626
G1 X128.05 Y195.799 E30.10804
G1 X127.406 Y196.029 E30.13988
G1 X126.546 Y196.21 E30.1808
G1 X126.045 Y196.277 E30.20434
G1 X125.364 Y196.328 E30.23614
G1 X124.681 Y196.299 E30.26797
G1 X124.007 Y196.19 E30.29976
G1 X123.674 Y196.106 E30.31576
G1 X121.254 Y195.418 E30.43291
G1 X115.93 Y194.124 E30.68803
G1 X113.444 Y193.633 E30.80603
G1 X108.146 Y192.813 E31.05566
G1 X102.824 Y192.297 E31.30464
G1 X97.513 Y192.083 E31.55214
G1 X92.157 Y192.17 E31.80157
G1 X89.511 Y192.326 E31.92499
G1 X84.819 Y192.732 E32.14429
G1 X84.136 Y192.751 E32.17611
G1 X83.456 Y192.69 E32.2079
G1 X82.787 Y192.55 E32.23972
G1 X82.139 Y192.333 E32.27154
G1 X81.521 Y192.042 E32.30335
G1 X81.123 Y191.804 E32.32494
G1 X80.705 Y191.531 E32.34819
G1 X80.155 Y191.124 E32.38005
G1 X79.657 Y190.656 E32.41187
G1 X79.217 Y190.134 E32.44366
G1 X78.842 Y189.563 E32.47547
G1 X78.628 Y189.158 E32.4968
G1 X78.265 Y188.398 E32.53602
G1 X78.007 Y187.765 E32.56785
G1 X77.825 Y187.107 E32.59964
G1 X77.737 Y186.58 E32.62452
G1 X77.547 Y185.005 E32.69839
G1 X77.509 Y184.081 E32.74145
G1 X77.585 Y182.108 E32.83339
G1 X77.618 Y181.676 E32.85356
G1 X77.893 Y179.246 E32.96744
G1 X78.009 Y178.573 E32.99924
G1 X78.105 Y178.217 E33.0164
G1 X78.549 Y176.745 E33.088
G1 X78.784 Y176.103 E33.11983
G1 X78.941 Y175.771 E33.13693
G1 X79.704 Y174.28 E33.21492
G1 X79.841 Y174.028 E33.22828
G1 X82.579 Y169.267 E33.48402
G1 X84.966 Y164.514 E33.73168
G1 X87.104 Y159.576 E33.98224
G1 X88.05 Y157.115 E34.10501
G1 X88.904 Y154.68 E34.22516
G1 X90.476 Y149.519 E34.47638
G1 X91.742 Y144.324 E34.72536
G1 X92.266 Y141.698 E34.85005
G1 X92.692 Y139.177 E34.9691
G1 X93.37 Y133.83 E35.22007
G1 X93.74 Y128.502 E35.46877
G1 X93.82 Y124.586 E35.65115
G1 X93.83 Y20.959 E40.47646
G1 X93.87 Y20.277 E40.50827
G1 X93.989 Y19.605 E40.54005
M204 S3000
M205 X10 Y10
G0 F3000 X94.549 Y19.673
M204 S1800
M205 X8 Y8
G1 F2400 X94.746 Y19.053 E40.57034
G1 X95.018 Y18.463 E40.60059
G1 X95.359 Y17.911 E40.6308
G1 X95.848 Y17.317 E40.66663
G1 X96.396 Y16.742 E40.70361
G1 X96.872 Y16.3 E40.73386
G1 X97.399 Y15.921 E40.76409
G1 X97.969 Y15.608 E40.79437
G1 X98.769 Y15.308 E40.83415
G1 X100.72 Y14.751 E40.92863
G1 X101.666 Y14.572 E40.97346
G1 X104.918 Y14.261 E41.12558
G1 X105.586 Y14.24 E41.1567
G1 X108.721 Y14.338 E41.30275
G1 X109.395 Y14.402 E41.33427
G1 X111.781 Y14.786 E41.4468
G1 X112.415 Y14.929 E41.47707
G1 X113.011 Y15.141 E41.50652
G1 X114.537 Y15.791 E41.58376
G1 X115.118 Y16.082 E41.61402
G1 X115.659 Y16.442 E41.64427
G1 X116.151 Y16.866 E41.67452
G1 X116.588 Y17.347 E41.70478
G1 X116.962 Y17.878 E41.73502
G1 X117.131 Y18.171 E41.75077
G1 X117.292 Y18.474 E41.76675
G1 X117.561 Y19.066 E41.79703
G1 X117.755 Y19.686 E41.82728
G1 X117.872 Y20.325 E41.85753
G1 X117.909 Y20.949 E41.88663
G1 X117.973 Y135.029 E47.19868
G1 X118.277 Y140.4 E47.44917
G1 X118.881 Y145.707 E47.69788
G1 X119.794 Y151.033 E47.9495
G1 X120.343 Y153.58 E48.07083
G1 X120.979 Y156.174 E48.19519
G1 X122.484 Y161.35 E48.44619
G1 X124.272 Y166.415 E48.6963
G1 X126.326 Y171.328 E48.94426
G1 X129.417 Y177.591 E49.26947
G1 X129.579 Y177.954 E49.28798
G1 X130.11 Y179.271 E49.3541
G1 X130.285 Y179.777 E49.37904
G1 X131.095 Y182.576 E49.51472
G1 X131.236 Y183.204 E49.54469
G1 X131.849 Y187.007 E49.72406
G1 X131.916 Y187.781 E49.76023
G1 X131.93 Y188.906 E49.81262
G1 X131.898 Y189.555 E49.84288
G1 X131.805 Y190.115 E49.86931
G1 X131.625 Y190.927 E49.90804
G1 X131.446 Y191.551 E49.93827
G1 X131.191 Y192.149 E49.96854
G1 X130.688 Y192.96 E50.01297
G1 X130.371 Y193.381 E50.03751
G1 X129.949 Y193.875 E50.06777
G1 X129.47 Y194.313 E50.09799
G1 X128.766 Y194.793 E50.13767
G1 X128.385 Y195.01 E50.15808
G1 X127.802 Y195.296 E50.18832
G1 X127.188 Y195.509 E50.21858
G1 X126.472 Y195.655 E50.25261
G1 X125.971 Y195.722 E50.27614
G1 X125.323 Y195.769 E50.3064
G1 X124.674 Y195.735 E50.33666
G1 X123.827 Y195.568 E50.37686
G1 X121.38 Y194.872 E50.49532
G1 X116.061 Y193.579 E50.75021
G1 X113.538 Y193.081 E50.86996
G1 X108.199 Y192.255 E51.12152
G1 X102.883 Y191.739 E51.37022
G1 X97.509 Y191.523 E51.62066
G1 X92.138 Y191.61 E51.87079
G1 X89.467 Y191.768 E51.99538
G1 X84.771 Y192.174 E52.21486
G1 X84.121 Y192.19 E52.24513
G1 X83.475 Y192.127 E52.27536
G1 X82.841 Y191.984 E52.30562
G1 X82.23 Y191.764 E52.33586
G1 X81.429 Y191.335 E52.37817
G1 X81.011 Y191.062 E52.40142
G1 X80.49 Y190.674 E52.43166
G1 X80.02 Y190.225 E52.46193
G1 X79.61 Y189.721 E52.49218
G1 X79.134 Y188.917 E52.53569
G1 X78.771 Y188.157 E52.57491
G1 X78.527 Y187.554 E52.6052
G1 X78.36 Y186.927 E52.63541
G1 X78.293 Y186.513 E52.65494
G1 X78.103 Y184.938 E52.72881
G1 X78.069 Y184.103 E52.76772
G1 X78.145 Y182.13 E52.85966
G1 X78.174 Y181.739 E52.87792
G1 X78.449 Y179.309 E52.99179
G1 X78.641 Y178.378 E53.03606
G1 X79.085 Y176.906 E53.10765
G1 X79.44 Y176.026 E53.15183
G1 X80.203 Y174.535 E53.22982
G1 X80.326 Y174.308 E53.24185
G1 X83.068 Y169.541 E53.49792
G1 X85.476 Y164.744 E53.74785
G1 X87.618 Y159.8 E53.99874
G1 X88.581 Y157.294 E54.12375
G1 X89.439 Y154.845 E54.24458
G1 X91.014 Y149.675 E54.49624
G1 X92.289 Y144.442 E54.74704
G1 X92.817 Y141.798 E54.87259
G1 X93.248 Y139.249 E54.99297
G1 X93.928 Y133.885 E55.24473
G1 X94.299 Y128.532 E55.49459
G1 X94.38 Y124.597 E55.67786
G1 X94.39 Y20.959 E60.50368
G1 X94.43 Y20.311 E60.53391
G1 X94.549 Y19.673 E60.56413
M204 S3000
M205 X10 Y10
G1 F2400 E54.56413
;MESH:Funky_Densor.stl
G0 F3000 X98.995 Y21.295
G0 X100.518 Y21.295
G0 X110.28 Y136.741
M204 S1800
M205 X8 Y8
;TYPE:WALL-INNER
G1 F2400 E60.56413
G1 F1500 X101.09 Y136.739 E60.99206
G1 X101.06 Y136.793 E60.99493
G1 X101.06 Y136.739
G1 X101.06 Y21.581 E66.35717
G1 X102.417 Y21.199 E66.42281
G1 X102.523 Y21.18 E66.42783
G1 X105.37 Y20.909 E66.561
G1 X107.735 Y20.946 E66.67113
G1 X108.702 Y21.027 E66.71632
G1 X110.623 Y21.356 E66.80707
G1 X111.244 Y21.629 E66.83866
G1 X111.247 Y137.796 E72.24788
G1 X111.247 Y138.669 E72.28853
G1 X111.248 Y139.51 E72.32769
G1 X111.249 Y139.547 E72.32942
G1 X110.976 Y139.511 E72.33724
G1 X111.004 Y138.67 E72.3554
G1 X110.698 Y137.853 E72.3847
G1 X110.28 Y136.741 E72.44002
M204 S3000
M205 X10 Y10
G0 F3000 X111.367 Y140.661
G0 X111.335 Y143.647
G0 X111.198 Y146.268
G0 X110.97 Y148.355
M204 S1800
M205 X8 Y8
G1 F1500 X110.966 Y148.403 E72.44226
G1 X110.948 Y148.354 E72.44245
G1 X110.971 Y148.338 E72.44338
G1 X110.97 Y148.355
M204 S3000
M205 X10 Y10
G0 F3000 X110.771 Y161.707
G0 X111.007 Y168.246
M204 S1800
M205 X8 Y8
G1 F1500 X110.981 Y168.145 E72.44824
G1 X110.798 Y167.449 E72.48175
G1 X111.262 Y168.05 E72.49227
G1 X111.275 Y168.067
G1 X111.789 Y168.499 E72.52354
G1 X112.59 Y169.173 E72.57228
G1 X112.708 Y169.273 E72.57948
G1 X112.569 Y169.197 E72.5798
G1 X111.434 Y168.922 E72.6101
G1 X110.955 Y168.9 E72.63242
G1 X110.956 Y168.885
G1 X111.007 Y168.246 E72.66207
M204 S3000
M205 X10 Y10
G0 F3000 X114.408 Y171.12
G0 X116.089 Y173.549
M204 S1800
M205 X8 Y8
G1 F1500 X115.714 Y172.284 E72.7235
G1 X115.592 Y171.872 E72.74351
G1 X115.007 Y171.059 E72.79015
G1 X115.765 Y171.647 E72.80105
G1 X116.104 Y171.91 E72.81633
G1 X117.56 Y173.039 E72.90212
G1 X118.955 Y174.271 E72.98878
G1 X119.069 Y174.391 E72.99649
G1 X119.25 Y174.581 E73.00871
G1 X120.024 Y175.394 E73.06098
G1 X120.107 Y175.481 E73.06658
G1 X120.741 Y176.274 E73.11385
G1 X121.125 Y176.755 E73.14251
G1 X121.198 Y176.846 E73.14794
G1 X122.247 Y178.398 E73.23517
G1 X122.462 Y178.716 E73.25304
G1 X122.679 Y179.122 E73.27448
G1 X122.358 Y179.008 E73.27771
G1 X121.997 Y178.879 E73.29175
G1 X121.684 Y178.766 E73.30725
G1 X120.845 Y178.708 E73.34641
G1 X120.899 Y177.557 E73.40006
G1 X120.679 Y177.092 E73.42401
G1 X120.416 Y176.535 E73.44903
G1 X119.777 Y175.749 E73.48443
G1 X119.722 Y175.682 E73.48726
G1 X118.889 Y174.925 E73.5301
G1 X118.669 Y174.783 E73.54162
G1 X117.966 Y174.327 E73.58064
G1 X116.827 Y173.878 E73.63764
G1 X116.073 Y173.837 E73.67281
G1 X115.859 Y173.825 E73.68279
G1 X116.089 Y173.549 E73.69058
M204 S3000
M205 X10 Y10
G0 F3000 X118.935 Y176.427
G0 X119.495 Y177.116
G0 X119.806 Y177.776
G0 X119.767 Y178.545
G0 X115.952 Y181.227
G0 X115.88 Y185.326
M204 S1800
M205 X8 Y8
G1 F1500 X115.457 Y185.32 E73.71028
G1 X115.143 Y185.3 E73.72493
G1 X114.538 Y185.262 E73.75316
G1 X114.452 Y185.256 E73.75717
G1 X114.541 Y185.198 E73.75812
G1 X114.999 Y184.802 E73.77474
G1 X115.535 Y184.338 E73.80775
G1 X115.772 Y184.612 E73.82462
G1 X116.052 Y184.822 E73.84092
G1 X116.053 Y184.823 E73.84099
G1 X116.74 Y185.338 E73.88097
G1 X115.881 Y185.327 E73.90196
G1 X115.88 Y185.326 E73.90202
M204 S3000
M205 X10 Y10
G0 F3000 X114.645 Y182.322
G0 X114.299 Y181.679
G0 X114.038 Y180.814
G0 X109.002 Y176.313
G0 X104.954 Y172.81
G0 X104.555 Y172.031
G0 X104.145 Y170.901
G0 X103.587 Y170.491
G0 X100.272 Y168.875
M204 S1800
M205 X8 Y8
G1 F1500 X100.276 Y168.889 E73.9027
G1 X100.171 Y168.898 E73.9053
G1 X100.269 Y168.859 E73.90547
G1 X100.272 Y168.875
M204 S3000
M205 X10 Y10
G0 F3000 X96.736 Y170.438
M204 S1800
M205 X8 Y8
G1 F1500 X96.322 Y170.921 E73.93509
G1 X96.134 Y171.14 E73.94853
G1 X95.957 Y171.426 E73.9642
G1 X95.72 Y171.808 E73.98513
G1 X95.483 Y171.426 E73.99716
G1 X95.214 Y170.995 E74.02081
G1 X95.124 Y170.849 E74.0288
G1 X95.102 Y170.814 E74.03072
G1 X95.361 Y170.702 E74.03877
G1 X95.522 Y170.642 E74.04521
G1 X96.058 Y170.442 E74.07185
G1 X96.654 Y170.221 E74.09302
G1 X97.277 Y169.989 E74.12397
G1 X96.736 Y170.438 E74.1318
M204 S3000
M205 X10 Y10
G0 F3000 X95.308 Y173.809
G0 X94.97 Y174.2
G0 X90.203 Y177.711
G0 X90.288 Y177.909
G0 X90.303 Y178.322
G0 X90.073 Y178.646
G0 X85.314 Y183.157
M204 S1800
M205 X8 Y8
G1 F1500 X85.321 Y183.166 E74.13233
G1 X85.812 Y183.773 E74.16868
G1 X85.197 Y184.545 E74.21464
G1 X85.059 Y184.719 E74.22498
G1 X84.784 Y185.064 E74.24553
G1 X84.741 Y184.467 E74.25897
G1 X84.742 Y184.244 E74.268
